Guo199826/mani_qp_controller/data/bags/joint_states_copy.csv
1692349059679244440,8,1692349059678601702,,panda_joint1,panda_joint2,panda_joint3,panda_joint4,panda_joint5,panda_joint6,panda_joint7,-0.03068384649694527,-0.7791424808919343,0.011579696783191646,-2.3427822361987647,-0.0074216335566658015,1.554829937264072,0.7930033201827397,-0.11816533301820976,0.030429148131695873,0.05660628423167275,0.05951561379579374,-0.03922286525542101,-0.06223340327217741,0.000398424878064329,-0.16199898719787598,-3.0548648834228516,-0.03779125213623047,22.03244400024414,0.3978414237499237,1.7969602346420288,-0.15033665299415588
1692349059713266678,9,1692349059712664975,,panda_joint1,panda_joint2,panda_joint3,panda_joint4,panda_joint5,panda_joint6,panda_joint7,-0.0347491617985081,-0.7781060977019777,0.013374839695030326,-2.340854197739491,-0.008707971540098263,1.5528862782431891,0.7929976099754374,-0.1142604277204533,0.026841146229838388,0.05300348109540046,0.05848083660095936,-0.03742293864859345,-0.05648144891248813,-0.00035581943772804213,0.09984183311462402,-3.1262760162353516,-0.11316967010498047,22.03244400024414,0.4820699393749237,1.7127317190170288,-0.09815158694982529
1692349059746989401,10,1692349059746624859,,panda_joint1,panda_joint2,panda_joint3,panda_joint4,panda_joint5,panda_joint6,panda_joint7,-0.038604481560371856,-0.7770153937420919,0.01506661805547698,-2.3388340198597146,-0.009939962725192205,1.5509348197869048,0.7930008383292488,-0.11319117266405768,0.03345566382636697,0.048379287139044075,0.05420136353171603,-0.03853999121389604,-0.06098150539099141,-0.0005966501934560397,-0.015209436416625977,-3.2373600006103516,0.07329273223876953,21.99277114868164,0.4582662284374237,1.7411130666732788,-0.12470187991857529
1692349059781457817,11,1692349059780573071,,panda_joint1,panda_joint2,panda_joint3,panda_joint4,panda_joint5,panda_joint6,panda_joint7,-0.042446010114674575,-0.7759177854449856,0.01670075385599839,-2.336790684739133,-0.011289124574421614,1.5490673825924595,0.7930021203493856,-0.10928407239785085,0.029972482999538877,0.04413158980282596,0.06163761781712995,-0.040004221440353135,-0.046066962502598084,-0.0004001057829924037,-0.05091500282287598,-3.1262760162353516,-0.07746410369873047,21.99277114868164,0.4756612479686737,1.7127317190170288,-0.11096896976232529
1692349059815521327,12,1692349059814605331,,panda_joint1,panda_joint2,panda_joint3,panda_joint4,panda_joint5,panda_joint6,panda_joint7,-0.046241755442970336,-0.7748208963059023,0.018223694091128343,-2.334771932692657,-0.01253591649950884,1.5471616911382016,0.7930033155978473,-0.10855901122982069,0.031616602515204234,0.040444677865630586,0.05903842277129487,-0.03550196953122008,-0.05584422996908747,0.0002276443441544976,0.06016898155212402,-3.1619815826416016,0.07329273223876953,21.83804702758789,0.4399556815624237,1.6843503713607788,-0.15033665299415588
1692349059848858386,13,1692349059848673012,,panda_joint1,panda_joint2,panda_joint3,panda_joint4,panda_joint5,panda_joint6,panda_joint7,-0.049936001086152614,-0.7737013607818125,0.019732161783219484,-2.332886305054673,-0.013830722631291334,1.54530051662228,0.7930010690071271,-0.10738427488666963,0.03133388108297773,0.047245619809649184,0.05605156110474858,-0.0381895446238739,-0.05441423217956884,-0.0002959401171348513,0.13554739952087402,-3.0548648834228516,-0.0020856857299804688,21.87771987915039,0.4399556815624237,1.7337888479232788,-0.09815158694982529
1692349059883081066,14,1692349059882673347,,panda_joint1,panda_joint2,panda_joint3,panda_joint4,panda_joint5,panda_joint6,panda_joint7,-0.05353340417403019,-0.7724988244217622,0.021234986775283075,-2.331066999460187,-0.015009161673812596,1.543496486420997,0.7930050608217718,-0.1053141333576927,0.030817184559906584,0.04551194293675225,0.055210887856177705,-0.03470799849615141,-0.04802201346125393,0.0005295604675965533,-0.015209436416625977,-3.2373600006103516,-0.07746410369873047,22.03244400024414,0.4097432792186737,1.7264646291732788,-0.15674534440040588
1692349059917356934,15,1692349059916671654,,panda_joint1,panda_joint2,panda_joint3,panda_joint4,panda_joint5,panda_joint6,panda_joint7,-0.0571337053065832,-0.7712855558577548,0.0226851373034624,-2.3291981844706933,-0.016170131439786246,1.5417935808747292,0.7930032331634523,-0.1046821130552902,0.02985379915925801,0.036842126479271695,0.057607402242571056,-0.029593865534221827,-0.0498302594400212,-0.0002789194219627738,-0.16199898719787598,-3.3484439849853516,-0.22425365447998047,21.99277114868164,0.4335469901561737,1.7127317190170288,-0.11096896976232529
1692349059950997793,16,1692349059950620435,,panda_joint1,panda_joint2,panda_joint3,panda_joint4,panda_joint5,panda_joint6,panda_joint7,-0.06066615622450921,-0.7700775217999748,0.024006745941398407,-2.327249490452656,-0.01738443776776994,1.5401228216358116,0.7930062258938948,-0.10407116940259961,0.041012013795453627,0.03524912759552344,0.05790716354780162,-0.035024685258235114,-0.04591573309198176,-0.0005063382244926358,-0.015209436416625977,-3.5309391021728516,-0.03779125213623047,22.07211685180664,0.4097432792186737,1.7411130666732788,-0.17688694596290588
1692349059985284034,17,1692349059984618996,,panda_joint1,panda_joint2,panda_joint3,panda_joint4,panda_joint5,panda_joint6,panda_joint7,-0.06404713883633598,-0.768929402385525,0.02520562846470281,-2.3251995351637187,-0.01857014905471597,1.538513957010779,0.7930058147615145,-0.10049416302578677,0.033723341611034,0.032608399032526936,0.06091771631500347,-0.037013246305844266,-0.0555721861686149,0.000314011783808151,-0.05091500282287598,-3.3087711334228516,-0.07746410369873047,22.10782241821289,0.4033345878124237,1.7475217580795288,-0.16315403580665588
1692349060019339742,18,1692349060018593645,,panda_joint1,panda_joint2,panda_joint3,panda_joint4,panda_joint5,panda_joint6,panda_joint7,-0.06741244254765268,-0.7678280945519953,0.02641650884469679,-2.3230770916276353,-0.01969692294720151,1.536981894216076,0.7930024811321785,-0.1011657890992847,0.030469955066184797,0.035682123757013094,0.06179158682395466,-0.029140792409921724,-0.038674810840641456,-0.0004915777020154095,0.09984183311462402,-3.3087711334228516,-0.03779125213623047,21.79837417602539,0.3795308768749237,1.6989988088607788,-0.10456027835607529
1692349060053409696,19,1692349060052753577,,panda_joint1,panda_joint2,panda_joint3,panda_joint4,panda_joint5,panda_joint6,panda_joint7,-0.07073486621615495,-0.7667210053994987,0.027637860038227522,-2.3211216835152633,-0.020878082104594117,1.5355192310759005,0.7930043455862558,-0.10323950587913384,0.03458929906163561,0.036325053079158155,0.05773814843161001,-0.03454587340216427,-0.04174070179451236,1.1062980149859621e-05,-0.05091500282287598,-3.2373600006103516,-0.07746410369873047,21.79837417602539,0.3795308768749237,1.6770261526107788,-0.15674534440040588
1692349060086960317,20,1692349060086617319,,panda_joint1,panda_joint2,panda_joint3,panda_joint4,panda_joint5,panda_joint6,panda_joint7,-0.07396458788984171,-0.7655948120380599,0.028799203250998443,-2.3193026081063635,-0.02197025547866853,1.5340328619655137,0.7930011971914638,-0.0915530966608875,0.03694867076851385,0.028872436272675613,0.04732836129747026,-0.03291953568256421,-0.037108355419834226,0.000893908660827933,-0.05091500282287598,-3.0905704498291016,-0.14887523651123047,21.95309829711914,0.3731221854686737,1.7054075002670288,-0.13111057877540588
1692349060121249032,21,1692349060120662919,,panda_joint1,panda_joint2,panda_joint3,panda_joint4,panda_joint5,panda_joint6,panda_joint7,-0.07708382381664429,-0.7643615112433143,0.029905855682632217,-2.317465919954283,-0.023097472035437758,1.5326311627977125,0.7930029214305578,-0.09396666331075361,0.036351632816184046,0.03265465132180774,0.0539243252075466,-0.030414366136749433,-0.03506704840361372,-0.0001645618254312078,-0.19770455360412598,-3.3087711334228516,-0.18854808807373047,22.07211685180664,0.3374166190624237,1.7694944143295288,-0.14392796158790588
1692349060155458833,22,1692349060154584455,,panda_joint1,panda_joint2,panda_joint3,panda_joint4,panda_joint5,panda_joint6,panda_joint7,-0.08026305279464802,-0.7630572002710935,0.030987235121432623,-2.3155307112662995,-0.024278759367937656,1.5312075726137244,0.7930018664457554,-0.0933836102828231,0.04100127325572588,0.031365250121220954,0.053613632017514026,-0.03840463845541645,-0.04835934456211922,-0.0005907810473185035,0.09984183311462402,-3.4952335357666016,-0.18854808807373047,22.07211685180664,0.3557271659374237,1.7694944143295288,-0.13751927018165588
1692349060189225866,23,1692349060188642545,,panda_joint1,panda_joint2,panda_joint3,panda_joint4,panda_joint5,panda_joint6,panda_joint7,-0.08335836235047674,-0.76172278006846,0.03201935830216167,-2.3135664916216037,-0.025396381819419125,1.5299079041466472,0.7930072072433305,-0.0930385827021531,0.03843645217529428,0.03128672911886802,0.05672462949865316,-0.03549913293513698,-0.0356270712598329,-0.0004494235156804374,-0.015209436416625977,-3.5666446685791016,-0.18854808807373047,22.03244400024414,0.3612203299999237,1.7264646291732788,-0.15674534440040588
1692349060223102553,24,1692349060222596764,,panda_joint1,panda_joint2,panda_joint3,panda_joint4,panda_joint5,panda_joint6,panda_joint7,-0.08640245249027133,-0.7604189150888946,0.03295619768751519,-2.3115359619467415,-0.026514991223791553,1.5285497564453105,0.7930000732859628,-0.08101529395723715,0.03579220304347792,0.02281695239275831,0.057513702734925606,-0.034297540618792206,-0.041863069999443905,-0.0004682515338964098,-0.08662056922912598,-3.5309391021728516,-0.14887523651123047,21.91739273071289,0.3429097831249237,1.7411130666732788,-0.11829318851232529
1692349060258431905,25,1692349060256554139,,panda_joint1,panda_joint2,panda_joint3,panda_joint4,panda_joint5,panda_joint6,panda_joint7,-0.08933624034528953,-0.7591256050280578,0.03380387576544591,-2.3095198524590166,-0.027611584895459333,1.527239244875578,0.7929974781747687,-0.0850385825110115,0.03590943972612602,0.027737830303905232,0.054388649496735345,-0.025241773385997552,-0.03605311336968965,-0.0023682153419100184,-0.015209436416625977,-3.4555606842041016,-0.14887523651123047,21.99277114868164,0.3493184745311737,1.7200559377670288,-0.09815158694982529
1692349060290883094,26,1692349060290571827,,panda_joint1,panda_joint2,panda_joint3,panda_joint4,panda_joint5,panda_joint6,panda_joint7,-0.09224959438043695,-0.757830300671371,0.03466100003229303,-2.3075566116452984,-0.02861356251041905,1.5259416474920318,0.7930039879383899,-0.09010227003020549,0.03735191775823345,0.026715630838266245,0.05400413360243645,-0.031581091861723094,-0.03659208447052128,0.0007982189859340084,-0.05091500282287598,-3.5666446685791016,-0.18854808807373047,21.79837417602539,0.3310079276561737,1.7264646291732788,-0.15674534440040588
1692349060325142572,27,1692349060324676592,,panda_joint1,panda_joint2,panda_joint3,panda_joint4,panda_joint5,panda_joint6,panda_joint7,-0.09510689003532463,-0.7565513220226022,0.03553053538895124,-2.3057186755336407,-0.02964978953629196,1.5246635218161202,0.7930044774932254,-0.08364396672159806,0.03821267325848243,0.03045377587586116,0.053987098867877316,-0.03559330656525802,-0.03144878754867205,-0.00019245369486524012,-0.08662056922912598,-3.4952335357666016,-0.26392650604248047,21.87771987915039,0.3255147635936737,1.7337888479232788,-0.13111057877540588
1692349060361987743,28,1692349060360767657,,panda_joint1,panda_joint2,panda_joint3,panda_joint4,panda_joint5,panda_joint6,panda_joint7,-0.09794725977937713,-0.7552431292279466,0.03637540673687294,-2.3038727521527482,-0.03072862846722481,1.5234960095894758,0.7930025642811523,-0.07720052902013859,0.038090188671130114,0.026662051589453388,0.05669720597417307,-0.03753648366116992,-0.0379085172838613,-0.00039913058240798483,0.09984183311462402,-3.7134342193603516,-0.18854808807373047,21.99277114868164,0.3612203299999237,1.7548459768295288,-0.14392796158790588
1692349060395384246,29,1692349060394567340,,panda_joint1,panda_joint2,panda_joint3,panda_joint4,panda_joint5,panda_joint6,panda_joint7,-0.10087008758046065,-0.7538834925703379,0.037203470032967464,-2.3018164849712566,-0.03176698327379286,1.522286669329451,0.7930047001974301,-0.07701859379710836,0.03570511315294537,0.020083836176388068,0.059644858440760964,-0.02464015003099287,-0.039266520217825146,0.0011973804356702903,0.06016898155212402,-3.7888126373291016,-0.22425365447998047,21.87771987915039,0.3374166190624237,1.7127317190170288,-0.16315403580665588
1692349060429321998,30,1692349060428595541,,panda_joint1,panda_joint2,panda_joint3,panda_joint4,panda_joint5,panda_joint6,panda_joint7,-0.1035189096098806,-0.7526050594091426,0.03791943081017539,-2.2998281621620644,-0.03274333500978886,1.521233056517743,0.7930018517622881,-0.08188314888769542,0.03905977805620084,0.018601355913679566,0.058663289878035464,-0.02448963050998705,-0.031415576928410426,6.910413205449515e-05,-0.19770455360412598,-3.8245182037353516,-0.26392650604248047,21.95309829711914,0.3126973807811737,1.7264646291732788,-0.13751927018165588
1692349060463356664,31,1692349060462561566,,panda_joint1,panda_joint2,panda_joint3,panda_joint4,panda_joint5,panda_joint6,panda_joint7,-0.10624014781448439,-0.7513305097170662,0.038595384652073884,-2.2977806505337433,-0.03377662262064864,1.52020161111031,0.7930048331265468,-0.07961700810259617,0.04248048582398697,0.021082180674630854,0.057497408037394164,-0.03440863941028952,-0.03338180386369488,0.00021018805635076202,0.09984183311462402,-3.7134342193603516,-0.22425365447998047,21.95309829711914,0.3493184745311737,1.7475217580795288,-0.16315403580665588
1692349060497309700,32,1692349060496607911,,panda_joint1,panda_joint2,panda_joint3,panda_joint4,panda_joint5,panda_joint6,panda_joint7,-0.10891537144616052,-0.7500421656781112,0.03923771086616354,-2.295782317288832,-0.03469216631128365,1.5191978982765517,0.7929990611288795,-0.07527475989667046,0.030948408062092474,0.020207515036545106,0.06394791410735692,-0.026758297547790258,-0.031983105085750065,-0.001258509261399564,-0.015209436416625977,-3.5666446685791016,-0.22425365447998047,21.79837417602539,0.3310079276561737,1.6916745901107788,-0.11096896976232529
1692349060532378918,33,1692349060530620701,,panda_joint1,panda_joint2,panda_joint3,panda_joint4,panda_joint5,panda_joint6,panda_joint7,-0.11155760302212374,-0.7486879172102089,0.03984850936493735,-2.2939112051172637,-0.03558939265293793,1.5181936783623138,0.7930033950708566,-0.07248314376853357,0.04193012430898538,0.02344963011325943,0.05523395715302131,-0.022147905924887763,-0.028677278455373774,-0.00014539775212422265,-0.015209436416625977,-3.7888126373291016,-0.22425365447998047,21.87771987915039,0.2953023612499237,1.6916745901107788,-0.15033665299415588
1692349060565282284,34,1692349060564590076,,panda_joint1,panda_joint2,panda_joint3,panda_joint4,panda_joint5,panda_joint6,panda_joint7,-0.11405566997232844,-0.7472878170628059,0.040418462413317806,-2.2921344785644835,-0.03651197033372649,1.5172844680225654,0.7930041115807862,-0.06937337093619673,0.044616921481946466,0.019192634093684196,0.054707096091839165,-0.027059809986297634,-0.02687049568447952,0.0006053077409701482,0.06016898155212402,-3.8998966217041016,-0.14887523651123047,21.91739273071289,0.3310079276561737,1.7200559377670288,-0.15674534440040588
1692349060599253477,35,1692349060598580155,,panda_joint1,panda_joint2,panda_joint3,panda_joint4,panda_joint5,panda_joint6,panda_joint7,-0.11651599247395364,-0.7458717238057979,0.0410434094126774,-2.2903095527564625,-0.03740940097431517,1.5163735323052403,0.7930029341869184,-0.06731246500130413,0.04278523575579365,0.020480529489403373,0.05813849768012098,-0.0289052130742207,-0.020575580367140228,0.00154318519807982,-0.015209436416625977,-3.9356021881103516,-0.29963207244873047,21.95309829711914,0.3191060721874237,1.7200559377670288,-0.15674534440040588
1692349060633395972,36,1692349060632571817,,panda_joint1,panda_joint2,panda_joint3,panda_joint4,panda_joint5,panda_joint6,panda_joint7,-0.11896529700372734,-0.7444451110576229,0.041620095411403664,-2.288428304732311,-0.038273447713771634,1.5154676361919546,0.7930032891068193,-0.06998119544720621,0.04174360290422969,0.014287203552152362,0.05162862359434085,-0.02819339262066205,-0.02091980906370574,0.0009534131798501582,0.024463415145874023,-4.193475723266602,-0.22425365447998047,22.10782241821289,0.3429097831249237,1.7054075002670288,-0.15033665299415588
1692349060669158887,37,1692349060668510647,,panda_joint1,panda_joint2,panda_joint3,panda_joint4,panda_joint5,panda_joint6,panda_joint7,-0.12130169871760689,-0.7431171059349237,0.042121280935947615,-2.2865270827393576,-0.03909683494238193,1.514654139250337,0.7930025652582832,-0.06522722675916573,0.03879045460156242,0.014864514134962753,0.05809949817998099,-0.02857624590293815,-0.018414549924422645,0.0005840501897905358,-0.08662056922912598,-4.082391738891602,-0.33533763885498047,22.03244400024414,0.3191060721874237,1.7337888479232788,-0.14392796158790588
1692349060702946600,38,1692349060702651550,,panda_joint1,panda_joint2,panda_joint3,panda_joint4,panda_joint5,panda_joint6,panda_joint7,-0.12393183004914121,-0.7416976048272766,0.042633733072526964,-2.2843123510221983,-0.04003436684912554,1.513792311456019,0.7930025637867656,-0.07213942322496202,0.03665983934107322,0.021573407952765782,0.06043792927344079,-0.029629754264006363,-0.029285203361703073,-0.00010944280036096742,0.06016898155212402,-4.007013320922852,-0.29963207244873047,21.95309829711914,0.3493184745311737,1.7200559377670288,-0.14392796158790588
1692349060738464243,39,1692349060736584996,,panda_joint1,panda_joint2,panda_joint3,panda_joint4,panda_joint5,panda_joint6,panda_joint7,-0.12628400393448708,-0.7404337880638556,0.043075861485914684,-2.2823443179732243,-0.04083246625791627,1.5130449896497797,0.7929997154764004,-0.06692534853166804,0.03318187365026201,0.01225256138266392,0.05901154888249287,-0.025719711758220513,-0.02590230976859149,-0.00024394540181938774,-0.015209436416625977,-3.9356021881103516,-0.22425365447998047,21.83804702758789,0.3072042167186737,1.6770261526107788,-0.11829318851232529
1692349060771634745,40,1692349060770565138,,panda_joint1,panda_joint2,panda_joint3,panda_joint4,panda_joint5,panda_joint6,panda_joint7,-0.1285230667227009,-0.7391838890119493,0.04350739730895897,-2.280497162067021,-0.041583330260139474,1.5122786416853153,0.7929998346856908,-0.06078183027180771,0.03617282776867257,0.011726678833847887,0.052726327780384455,-0.02361975082674389,-0.030037425500914854,-0.0004603804246421663,-0.015209436416625977,-3.8998966217041016,-0.22425365447998047,21.72299575805664,0.3007955253124237,1.6706174612045288,-0.11829318851232529
1692349060805030356,41,1692349060804629805,,panda_joint1,panda_joint2,panda_joint3,panda_joint4,panda_joint5,panda_joint6,panda_joint7,-0.13079818518192718,-0.7378626907200238,0.04395793304638167,-2.278712217901713,-0.04234564330023947,1.5115679752207503,0.7930008158713517,-0.06298656178910898,0.038858604361097754,0.014377422982665899,0.0562772905832608,-0.03125817183042369,-0.013719404634446191,-5.219060014022345e-05,-0.12629342079162598,-3.9356021881103516,-0.37501049041748047,21.87771987915039,0.3072042167186737,1.6770261526107788,-0.09815158694982529
1692349060839116761,42,1692349060838564369,,panda_joint1,panda_joint2,panda_joint3,panda_joint4,panda_joint5,panda_joint6,panda_joint7,-0.1330526167605603,-0.736447524791643,0.04435816250223029,-2.2768731737025836,-0.043168538849110955,1.510868028212736,0.7929972884317918,-0.06583642092778053,0.040342962003283564,0.008885635911338183,0.05274820275253636,-0.020578558081836167,-0.022306392853112526,0.000483319268399185,-0.05091500282287598,-4.046686172485352,-0.26392650604248047,21.76266860961914,0.3374166190624237,1.6706174612045288,-0.12470187991857529
1692349060873264530,43,1692349060872580093,,panda_joint1,panda_joint2,panda_joint3,panda_joint4,panda_joint5,panda_joint6,panda_joint7,-0.13528249599424516,-0.7349869646296984,0.04475610125435565,-2.2749877461881765,-0.043938666343117945,1.5102075525950949,0.793006230327224,-0.06246794584328421,0.03990815700659794,0.012296041089736405,0.05418609791268598,-0.01881500280374341,-0.02048783576662685,0.0018669385570215897,0.024463415145874023,-4.153802871704102,-0.29963207244873047,21.83804702758789,0.3191060721874237,1.6989988088607788,-0.17688694596290588
1692349060907074158,44,1692349060906624623,,panda_joint1,panda_joint2,panda_joint3,panda_joint4,panda_joint5,panda_joint6,panda_joint7,-0.13747975321377356,-0.7335041682358018,0.04512621486019153,-2.273040650326588,-0.04468843760553089,1.50953661039767,0.7930004407986998,-0.06305238919993315,0.04455098150992225,0.011055072237550262,0.057976605361535684,-0.025475735739675084,-0.023481775683330323,-0.00025018987056484477,-0.08662056922912598,-4.375970840454102,-0.26392650604248047,21.91739273071289,0.2888936698436737,1.6989988088607788,-0.12470187991857529
1692349060941441828,45,1692349060940682844,,panda_joint1,panda_joint2,panda_joint3,panda_joint4,panda_joint5,panda_joint6,panda_joint7,-0.13961045726961246,-0.7320617147477977,0.04548031072272965,-2.271057216545516,-0.045386152241379776,1.5088753076533055,0.793005062058017,-0.065938211125063,0.04286066774369888,0.012412990181044282,0.06165752783718477,-0.025361242203784377,-0.01849825240780023,0.001079302172224906,0.024463415145874023,-4.375970840454102,-0.22425365447998047,21.79837417602539,0.3374166190624237,1.6843503713607788,-0.16315403580665588
1692349060975166709,46,1692349060974625798,,panda_joint1,panda_joint2,panda_joint3,panda_joint4,panda_joint5,panda_joint6,panda_joint7,-0.14164815182183096,-0.730703767876453,0.045810513192284234,-2.2691991750732092,-0.04608237794751147,1.5082718684430536,0.793002209356662,-0.0523565703345777,0.04225288653964834,0.009457642799158455,0.05556641712086878,-0.016547863489293962,-0.016108750836331398,0.0005349206989977657,-0.015209436416625977,-4.300592422485352,-0.26392650604248047,21.79837417602539,0.3126973807811737,1.6706174612045288,-0.13751927018165588
1692349061009171755,47,1692349061008541991,,panda_joint1,panda_joint2,panda_joint3,panda_joint4,panda_joint5,panda_joint6,panda_joint7,-0.1436849012812147,-0.729384863207039,0.046131834840225566,-2.2674584984075534,-0.04678582188008425,1.5076905837153791,0.7930043470378295,-0.05975218650256266,0.03457183175561269,0.011591756637417027,0.05637409224437527,-0.02210159486788379,-0.020192642767578112,0.0006903240705656758,-0.08662056922912598,-4.153802871704102,-0.33533763885498047,21.83804702758789,0.3126973807811737,1.6559690237045288,-0.15674534440040588
1692349061044474828,48,1692349061042588067,,panda_joint1,panda_joint2,panda_joint3,panda_joint4,panda_joint5,panda_joint6,panda_joint7,-0.1457149310608334,-0.7280366203135068,0.04640674000472125,-2.2657471831341973,-0.04745386361852784,1.5070971812614253,0.7930040276745954,-0.05711932998724336,0.032507510182740826,0.01217101680683771,0.048165815968323006,-0.013193577914308264,-0.021242786922511615,0.00020642344335931404,-0.05091500282287598,-4.375970840454102,-0.29963207244873047,21.99277114868164,0.3126973807811737,1.6770261526107788,-0.15674534440040588
1692349061077301079,49,1692349061076609961,,panda_joint1,panda_joint2,panda_joint3,panda_joint4,panda_joint5,panda_joint6,panda_joint7,-0.14776680826620855,-0.7266669639197469,0.04663560487116462,-2.263957230458731,-0.04806915859778298,1.5065325085113142,0.7930032758614175,-0.05798060623407408,0.038397884557950304,0.0017255155747897253,0.05572148376729178,-0.011665522896061833,-0.020751932756046115,-0.0002172183250084324,-0.015209436416625977,-4.558465957641602,-0.22425365447998047,21.87771987915039,0.3126973807811737,1.6770261526107788,-0.15033665299415588
1692349061111415576,50,1692349061110547838,,panda_joint1,panda_joint2,panda_joint3,panda_joint4,panda_joint5,panda_joint6,panda_joint7,-0.1497690110138969,-0.7252971043300447,0.04684725528951927,-2.2620910190578543,-0.04867756921761893,1.506000764013658,0.7930018649552172,-0.06007160779080099,0.04355810321791239,0.007856247429346843,0.05262152958712815,-0.02342468551755768,-0.018677359498636675,0.0022292206886251956,0.13554739952087402,-4.522760391235352,-0.22425365447998047,21.87771987915039,0.3191060721874237,1.6989988088607788,-0.13751927018165588
1692349061145216224,51,1692349061144537255,,panda_joint1,panda_joint2,panda_joint3,panda_joint4,panda_joint5,panda_joint6,panda_joint7,-0.1517116811479559,-0.7239354607194243,0.047031335773146596,-2.2602164681854933,-0.049289132152340834,1.5054999712220762,0.7930036466946391,-0.056887149544649164,0.03747341566505587,0.006849337856538465,0.05350290046117431,-0.01933409528086237,-0.0156851239663551,0.0005711191686598572,0.06016898155212402,-4.487054824829102,-0.14887523651123047,21.99277114868164,0.3429097831249237,1.7054075002670288,-0.12470187991857529
1692349061179261571,52,1692349061178600207,,panda_joint1,panda_joint2,panda_joint3,panda_joint4,panda_joint5,panda_joint6,panda_joint7,-0.15360031718881081,-0.7225454999376386,0.04721694846241996,-2.258286544725562,-0.04990772533256557,1.505041018173271,0.792996172576315,-0.05188649990934511,0.04504826508691162,0.0006724299891711955,0.057512423871654894,-0.021464014136529288,-0.010859202006706236,-0.001320824467922338,-0.05091500282287598,-4.487054824829102,-0.14887523651123047,21.83804702758789,0.3072042167186737,1.6495603322982788,-0.08533420413732529
1692349061213234041,53,1692349061212567643,,panda_joint1,panda_joint2,panda_joint3,panda_joint4,panda_joint5,panda_joint6,panda_joint7,-0.1554346405691849,-0.721151993463847,0.04740539769183999,-2.256418207058825,-0.05046194565197011,1.5046123796818662,0.7930036335443927,-0.057638462133788156,0.0442509306348229,0.0057355599105081735,0.05510266843161971,-0.012229627097034517,-0.008980711758612021,0.00042548928139287084,-0.16199898719787598,-4.375970840454102,-0.41071605682373047,21.79837417602539,0.3126973807811737,1.6706174612045288,-0.15033665299415588
1692349061247210889,54,1692349061246553905,,panda_joint1,panda_joint2,panda_joint3,panda_joint4,panda_joint5,panda_joint6,panda_joint7,-0.1573269792473512,-0.7197100107718513,0.047583888130538786,-2.254668487606287,-0.05098913624902457,1.5041945189390467,0.7930034010180753,-0.05452194255015109,0.045809082352509134,0.0029140009637612335,0.0508928633023074,-0.014640566641115559,-0.01311713175542619,-0.00016548043531507437,-0.12629342079162598,-4.522760391235352,-0.26392650604248047,21.79837417602539,0.3126973807811737,1.7264646291732788,-0.15033665299415588
1692349061281179087,55,1692349061280540985,,panda_joint1,panda_joint2,panda_joint3,panda_joint4,panda_joint5,panda_joint6,panda_joint7,-0.15916108608170565,-0.7182871156086711,0.04769985545004414,-2.2530089656576195,-0.05152206491524838,1.5037877391741565,0.7930033950706086,-0.05048610872673604,0.041156263219671696,0.0033225526405727336,0.04653948292258313,-0.01744935161162695,-0.006269264288368829,0.00045711755516206903,-0.05091500282287598,-4.705255508422852,-0.33533763885498047,21.83804702758789,0.3191060721874237,1.7200559377670288,-0.15033665299415588
1692349061315219728,56,1692349061314552451,,panda_joint1,panda_joint2,panda_joint3,panda_joint4,panda_joint5,panda_joint6,panda_joint7,-0.1610286240473188,-0.716882449119682,0.047802520361589086,-2.2513103147764677,-0.05203428061831724,1.5034013210212969,0.7929997154764004,-0.05790387193500867,0.04022319456141588,0.0003032127941386925,0.04839713533857923,-0.017123538000739544,-0.01000526139460795,-0.0004819003699216735,-0.015209436416625977,-4.780633926391602,-0.26392650604248047,21.99277114868164,0.3126973807811737,1.6989988088607788,-0.11829318851232529
1692349061349387999,57,1692349061348683554,,panda_joint1,panda_joint2,panda_joint3,panda_joint4,panda_joint5,panda_joint6,panda_joint7,-0.1628855325417429,-0.7155357092295543,0.04789507481340881,-2.2494995909151485,-0.052540574443830264,1.5030187020842183,0.7930007927751654,-0.04983981023488093,0.03378754125187278,0.0024265963092710693,0.049717949367915,-0.012914358551083362,-0.020427620130893408,0.000338263550981715,0.17125296592712402,-4.816339492797852,-0.22425365447998047,21.87771987915039,0.3493184745311737,1.6989988088607788,-0.11829318851232529
1692349061382693106,58,1692349061382552015,,panda_joint1,panda_joint2,panda_joint3,panda_joint4,panda_joint5,panda_joint6,panda_joint7,-0.16461329196303534,-0.7142272691648005,0.04794265682164969,-2.24765658080775,-0.053028739348010424,1.5026835621633143,0.7930032907965716,-0.048711163525942534,0.032472482074333266,0.00026202490305349155,0.05616181356920669,-0.017269956807434376,-0.012422737387763127,0.00012775475239775114,0.06016898155212402,-4.780633926391602,-0.22425365447998047,21.79837417602539,0.3310079276561737,1.6770261526107788,-0.15033665299415588
1692349061417254466,59,1692349061416532742,,panda_joint1,panda_joint2,panda_joint3,panda_joint4,panda_joint5,panda_joint6,panda_joint7,-0.16629963996874733,-0.7129503223584784,0.04801285255186443,-2.245756029135702,-0.053493752223318834,1.5023464980134802,0.7930055275531217,-0.049415858203654496,0.034377298287461305,0.002410245790776001,0.0536196792351076,-0.007760174031741188,-0.013052501895838063,0.00039645371342226165,-0.015209436416625977,-4.633844375610352,-0.18854808807373047,21.76266860961914,0.3310079276561737,1.6989988088607788,-0.17047825455665588
1692349061451251916,60,1692349061450580918,,panda_joint1,panda_joint2,panda_joint3,panda_joint4,panda_joint5,panda_joint6,panda_joint7,-0.167943390736411,-0.7116166517338449,0.04810083525550488,-2.2439056990454183,-0.053914176979362904,1.5020331159483729,0.7930062259484398,-0.04752300104655824,0.04002983968926938,0.001678430617315941,0.0537983765874542,-0.011739619683346511,-0.006972015297938113,0.0016801405913456845,-0.12629342079162598,-4.744928359985352,-0.26392650604248047,21.72299575805664,0.3126973807811737,1.6916745901107788,-0.17688694596290588
1692349061485142154,61,1692349061484546475,,panda_joint1,panda_joint2,panda_joint3,panda_joint4,panda_joint5,panda_joint6,panda_joint7,-0.16963275646668902,-0.7102500692470909,0.04818655557005188,-2.242159636317379,-0.054323045420724324,1.5017760923530037,0.7930058714449489,-0.0430078693445615,0.04220298825578984,0.003531156935238261,0.05062545968833117,-0.01109271035101589,-0.007644942046232838,0.004953999665324526,-0.05091500282287598,-4.705255508422852,-0.37501049041748047,21.68332290649414,0.3126973807811737,1.6843503713607788,-0.17047825455665588
1692349061518824167,62,1692349061518571750,,panda_joint1,panda_joint2,panda_joint3,panda_joint4,panda_joint5,panda_joint6,panda_joint7,-0.17128054322476324,-0.7088445021146441,0.04821466665082869,-2.24054221502283,-0.05471707354198327,1.501545629811045,0.7930041115626171,-0.050945608311594566,0.04332479619311402,-0.0007695576086377616,0.04508944302079479,-0.010198695198516102,-0.009380503609465877,0.0004742090106281098,0.024463415145874023,-4.816339492797852,-0.22425365447998047,21.83804702758789,0.3255147635936737,1.6916745901107788,-0.15674534440040588
1692349061553351793,63,1692349061552564881,,panda_joint1,panda_joint2,panda_joint3,panda_joint4,panda_joint5,panda_joint6,panda_joint7,-0.17290849785229656,-0.7073966725919741,0.04822428286553802,-2.2389267273052558,-0.05510025200687667,1.5012585298766408,0.7930048483650248,-0.04404863890926305,0.040655242148759936,-0.0007736120669884258,0.04900593513376315,-0.00764891328675684,-0.003911174352859824,0.00012699139932243587,-0.05091500282287598,-4.998834609985352,-0.22425365447998047,21.99277114868164,0.3310079276561737,1.7264646291732788,-0.13111057877540588
1692349061586874096,64,1692349061586558532,,panda_joint1,panda_joint2,panda_joint3,panda_joint4,panda_joint5,panda_joint6,panda_joint7,-0.17456003923298816,-0.7059490275428537,0.04823702537273847,-2.2372592050910862,-0.055473930079966094,1.5010630999832226,0.7930050703847686,-0.03768644728174198,0.037456188439932335,-0.0009448234479347567,0.04980786630446861,-0.007510130306537708,-0.0021639984135991925,8.911090347793471e-05,-0.08662056922912598,-5.145624160766602,-0.22425365447998047,22.07211685180664,0.3191060721874237,1.7264646291732788,-0.13751927018165588
1692349061621677536,65,1692349061620871260,,panda_joint1,panda_joint2,panda_joint3,panda_joint4,panda_joint5,panda_joint6,panda_joint7,-0.1761569963864881,-0.7045506199988968,0.04824984965923446,-2.2355202013909152,-0.05584341783156134,1.5008580719744986,0.7929998498934593,-0.044984868214986186,0.03871351823989389,0.0019159395467413865,0.054291542666507056,-0.005241024957875826,-0.009539006422033603,-0.0001915520132747203,0.024463415145874023,-5.185297012329102,-0.22425365447998047,21.91739273071289,0.3191060721874237,1.7054075002670288,-0.11829318851232529
1692349061654690200,66,1692349061654532430,,panda_joint1,panda_joint2,panda_joint3,panda_joint4,panda_joint5,panda_joint6,panda_joint7,-0.17773848771634612,-0.7031994005884011,0.0482618674705914,-2.233708183649219,-0.056214016549639985,1.5006973467989004,0.7929986829135522,-0.04862110252405833,0.03882029351703846,0.000535352968828843,0.05490368992189269,-0.007871359866557083,-0.002559793897262735,-0.0004127616422488098,0.024463415145874023,-5.109918594360352,-0.26392650604248047,21.91739273071289,0.3310079276561737,1.7264646291732788,-0.09815158694982529
1692349061689287170,67,1692349061688632144,,panda_joint1,panda_joint2,panda_joint3,panda_joint4,panda_joint5,panda_joint6,panda_joint7,-0.17926042893374924,-0.701894316817935,0.04826791208506508,-2.231871520756276,-0.05655904568587155,1.5005366642023357,0.793000860023165,-0.03845508403014681,0.03401621846799904,0.0016456787926736778,0.05187209226547128,-0.009448948964732027,-0.008939002903488062,-0.0007339232517143836,0.024463415145874023,-5.185297012329102,-0.29963207244873047,21.83804702758789,0.3310079276561737,1.6916745901107788,-0.09815158694982529
1692349061722832877,68,1692349061722552830,,panda_joint1,panda_joint2,panda_joint3,panda_joint4,panda_joint5,panda_joint6,panda_joint7,-0.1807107231848544,-0.7006458392095134,0.048270663256092035,-2.230121169445821,-0.05688347203574691,1.5003835711673177,0.793005062948262,-0.03911396832741119,0.03093634891869911,0.0012365819967121324,0.05415439130842227,-0.009801441446588075,-0.00024469697640258354,0.0003688305677943229,-0.08662056922912598,-5.038507461547852,-0.33533763885498047,21.68332290649414,0.3191060721874237,1.6989988088607788,-0.15674534440040588
1692349061758208983,69,1692349061756579667,,panda_joint1,panda_joint2,panda_joint3,panda_joint4,panda_joint5,panda_joint6,panda_joint7,-0.18222630026360337,-0.6993675246999219,0.04827569317516474,-2.228480991134721,-0.05718587492577149,1.5002650641942943,0.7930055138190908,-0.047186552845036936,0.03674452185011709,0.0003899015178896472,0.04653684123557296,-0.004502729283958289,-0.008765567448169786,0.0005650760047250801,-0.08662056922912598,-4.963129043579102,-0.37501049041748047,21.79837417602539,0.3191060721874237,1.7054075002670288,-0.17047825455665588
1692349061791607167,70,1692349061790746212,,panda_joint1,panda_joint2,panda_joint3,panda_joint4,panda_joint5,panda_joint6,panda_joint7,-0.18374189979037622,-0.6980264780241024,0.04827046254862767,-2.22689078233531,-0.05747826667783165,1.5001465379381662,0.7929997154824567,-0.04351842169158463,0.046392837858998504,0.0004896687734207603,0.04846408775522885,-0.007124743120764605,-0.0009742451851484149,-0.00026442491656822586,-0.015209436416625977,-5.145624160766602,-0.33533763885498047,21.76266860961914,0.3191060721874237,1.6843503713607788,-0.11829318851232529
1692349061825357316,71,1692349061824622774,,panda_joint1,panda_joint2,panda_joint3,panda_joint4,panda_joint5,panda_joint6,panda_joint7,-0.18519311565238192,-0.6966344605122551,0.04827250098843209,-2.225272020559501,-0.05775095750596966,1.5000075828709234,0.7930022093963575,-0.04065954088429845,0.04116945006156617,0.0011859245094988976,0.04560607908352802,-0.007492238267017783,-0.0005581092180225668,0.0006887034048883715,-0.12629342079162598,-5.221002578735352,-0.37501049041748047,21.91739273071289,0.3126973807811737,1.7337888479232788,-0.13751927018165588
1692349061858877840,72,1692349061858575676,,panda_joint1,panda_joint2,panda_joint3,panda_joint4,panda_joint5,panda_joint6,panda_joint7,-0.18663306978931107,-0.6952070200789078,0.048270096824683695,-2.223596417749572,-0.05800993381966658,1.4999552215032428,0.793001851895448,-0.043293276943532716,0.0427848016064989,-0.000854790803178755,0.05140962094937583,-0.000856475247644856,-0.0015847424653875426,-8.583040108140792e-07,-0.16199898719787598,-5.332086563110352,-0.37501049041748047,21.79837417602539,0.3007955253124237,1.7264646291732788,-0.13751927018165588
1692349061892962618,73,1692349061892631887,,panda_joint1,panda_joint2,panda_joint3,panda_joint4,panda_joint5,panda_joint6,panda_joint7,-0.1881031597090071,-0.693807443099309,0.04827159887631872,-2.221891130183072,-0.05825577001879534,1.4998707289188367,0.7930018517260934,-0.03141777471104193,0.04363644646985682,6.591579486385106e-05,0.04852151053880114,-0.007417666211258624,-0.006520799247632682,0.00038367042147680486,-0.12629342079162598,-5.478876113891602,-0.44642162322998047,21.76266860961914,0.3126973807811737,1.7264646291732788,-0.13751927018165588
1692349061926969775,74,1692349061926529983,,panda_joint1,panda_joint2,panda_joint3,panda_joint4,panda_joint5,panda_joint6,panda_joint7,-0.18951578876103803,-0.6924589542730997,0.04825087633771824,-2.220105917783459,-0.05850778814339377,1.4997972865046356,0.7929985869617926,-0.03499099122389457,0.03754156006228836,-0.003041115989982975,0.05741362708015655,-0.01076255808351706,-0.002670433579669298,-0.0007748549069338611,-0.08662056922912598,-5.439203262329102,-0.37501049041748047,21.76266860961914,0.3310079276561737,1.6989988088607788,-0.10456027835607529
1692349061960834626,75,1692349061960520986,,panda_joint1,panda_joint2,panda_joint3,panda_joint4,panda_joint5,panda_joint6,panda_joint7,-0.19090633266324922,-0.6911488844229511,0.04824776543942631,-2.218359824759915,-0.05870389450283436,1.4997578043833386,0.7929989016746163,-0.0424586239106279,0.034378480248140796,-0.0003489907274531915,0.05194182674433714,-0.010456464064199042,0.00029470738001964125,0.0005079137604653748,-0.05091500282287598,-5.367792129516602,-0.5218000411987305,21.64365005493164,0.3126973807811737,1.7054075002670288,-0.11096896976232529
1692349061995053888,76,1692349061994602242,,panda_joint1,panda_joint2,panda_joint3,panda_joint4,panda_joint5,panda_joint6,panda_joint7,-0.1922457183648148,-0.6898642228038011,0.04822010492774997,-2.2167410795945197,-0.058899570469686024,1.499730323064042,0.7930004275713934,-0.04033270688695572,0.03799597283681121,0.0009763536683751536,0.04828360689169043,-0.003302799924354228,-0.0027274410976552556,0.0013199110678489732,0.024463415145874023,-5.403497695922852,-0.5575056076049805,21.72299575805664,0.3191060721874237,1.7127317190170288,-0.12470187991857529
1692349062029276921,77,1692349062028553551,,panda_joint1,panda_joint2,panda_joint3,panda_joint4,panda_joint5,panda_joint6,panda_joint7,-0.19353152288146988,-0.6886128256527156,0.048171754368583806,-2.215230313997652,-0.059115802980318884,1.4996876053727486,0.7930015009336832,-0.03273565393704546,0.03576505322532505,-0.003480061381876074,0.0484370807972063,-0.0065185861152305645,-0.0005931650580191286,3.5266621696127825e-06,-0.05091500282287598,-5.367792129516602,-0.5971784591674805,21.79837417602539,0.3255147635936737,1.7200559377670288,-0.12470187991857529
1692349062063169379,78,1692349062062534275,,panda_joint1,panda_joint2,panda_joint3,panda_joint4,panda_joint5,panda_joint6,panda_joint7,-0.19485777741274438,-0.6873699029001806,0.048135227414572164,-2.2137421618585282,-0.05930212271593836,1.4996619259051558,0.7930043457356234,-0.03644669095591613,0.04001396697061033,-0.003201397173641067,0.043782780362966345,-0.0014105974158015115,-0.00047687208352045014,0.0018542249172411387,0.024463415145874023,-5.367792129516602,-0.6328840255737305,21.79837417602539,0.3191060721874237,1.7337888479232788,-0.15674534440040588
1692349062097086744,79,1692349062096590211,,panda_joint1,panda_joint2,panda_joint3,panda_joint4,panda_joint5,panda_joint6,panda_joint7,-0.19615258563081708,-0.6860673397741769,0.04806991571379755,-2.2121838709260935,-0.0594884265449947,1.4996443443814194,0.792998901844571,-0.04031685025869467,0.0325941532315342,-0.0014099873278124295,0.05006539671846517,-0.003463269016983906,-0.0007731066891211549,0.00010539367304644078,-0.16199898719787598,-5.585992813110352,-0.7836408615112305,21.91739273071289,0.3126973807811737,1.7621701955795288,-0.11096896976232529
1692349062131303346,80,1692349062130541585,,panda_joint1,panda_joint2,panda_joint3,panda_joint4,panda_joint5,panda_joint6,panda_joint7,-0.19745209844321443,-0.6847513511446451,0.04795553627738906,-2.210540490191545,-0.05965559882335063,1.499640143256754,0.7929967786915688,-0.028742921495049742,0.04074130157965396,-0.0005966456097256756,0.05049290904409396,-0.0016989658381885017,0.003774431290985601,-0.00036351481150439596,-0.05091500282287598,-5.585992813110352,-0.8193464279174805,21.79837417602539,0.3072042167186737,1.7475217580795288,-0.09174289554357529
1692349062165482761,81,1692349062164748590,,panda_joint1,panda_joint2,panda_joint3,panda_joint4,panda_joint5,panda_joint6,panda_joint7,-0.19872861240983347,-0.6834317772736611,0.0478125533982505,-2.2089004822149265,-0.05978256692539712,1.4996403482159193,0.792996767460727,-0.0396205215834628,0.03176325722285112,-0.004707280735595544,0.05135098266344811,-0.00036071290981487146,0.00011448054708643217,-0.0006336762851928242,-0.015209436416625977,-5.439203262329102,-0.7082624435424805,21.83804702758789,0.3255147635936737,1.7548459768295288,-0.09174289554357529
1692349062199175409,82,1692349062198536550,,panda_joint1,panda_joint2,panda_joint3,panda_joint4,panda_joint5,panda_joint6,panda_joint7,-0.20001570374793537,-0.6820647848026556,0.04769598667610607,-2.207240112126212,-0.059933914108178554,1.499638748398696,0.7930039879401939,-0.03213317690422183,0.037601530685772315,-0.0044694266831157275,0.0505236269661155,-0.004868420538362887,-0.0009302380906521766,0.0005251561786681309,-0.05091500282287598,-5.661371231079102,-0.6725568771362305,21.76266860961914,0.3374166190624237,1.7694944143295288,-0.15674534440040588
1692349062232934026,83,1692349062232561910,,panda_joint1,panda_joint2,panda_joint3,panda_joint4,panda_joint5,panda_joint6,panda_joint7,-0.2012906604897415,-0.6807062442210305,0.047571366732807534,-2.20559294954273,-0.06004882290034038,1.499637388709703,0.7930032758795869,-0.035401564270605444,0.04120373706315169,-0.009005384276212206,0.04791555918801496,-0.00532348698664724,0.00012751843037083995,-3.839347056787669e-05,-0.015209436416625977,-5.808160781860352,-0.6328840255737305,21.83804702758789,0.3255147635936737,1.7832273244857788,-0.15033665299415588
1692349062267177956,84,1692349062266522770,,panda_joint1,panda_joint2,panda_joint3,panda_joint4,panda_joint5,panda_joint6,panda_joint7,-0.2024877662924997,-0.6793941511653707,0.04743144732059112,-2.2039948921110546,-0.06015055685168211,1.4996388441735866,0.7930025637865386,-0.034810286616182275,0.04208036309291182,-0.002042480566590235,0.04475022034710587,-0.00040466571431261146,-0.00024125214948290532,-0.00030400394373412737,-0.12629342079162598,-5.808160781860352,-0.7439680099487305,21.76266860961914,0.3126973807811737,1.8116086721420288,-0.14392796158790588
1692349062301064011,85,1692349062300591058,,panda_joint1,panda_joint2,panda_joint3,panda_joint4,panda_joint5,panda_joint6,panda_joint7,-0.2037105009542363,-0.6781225013398922,0.04730738094926286,-2.202492523387726,-0.06026487405506071,1.4996472959980103,0.7930041601293976,-0.03139736270355472,0.035711519594655516,-0.001823433970953923,0.0412872881798643,-0.009691500908389786,-3.4009160249495035e-05,-0.0005895420208018563,-0.08662056922912598,-5.772455215454102,-0.7082624435424805,21.83804702758789,0.3429097831249237,1.8180173635482788,-0.15674534440040588
1692349062334981820,86,1692349062334521827,,panda_joint1,panda_joint2,panda_joint3,panda_joint4,panda_joint5,panda_joint6,panda_joint7,-0.20487822253240875,-0.6768832084594415,0.047160508736226694,-2.2010333197994574,-0.06033513648895363,1.4996580678904061,0.7930025637845207,-0.03411138525985743,0.03753984451922675,-0.007475554450025838,0.03860043817886061,-0.0024168685084708214,0.0005211210589285358,0.0005011196829369827,-0.12629342079162598,-5.772455215454102,-0.7836408615112305,21.76266860961914,0.3191060721874237,1.8399900197982788,-0.14392796158790588
1692349062369146927,87,1692349062368551195,,panda_joint1,panda_joint2,panda_joint3,panda_joint4,panda_joint5,panda_joint6,panda_joint7,-0.20602588521103646,-0.6756286974115466,0.046991596862064444,-2.1995585398351385,-0.060420482881642965,1.4996752555516208,0.7930027227867747,-0.0370235237252121,0.033333671598346826,-0.003963535420619015,0.045963328626496734,-0.001045501067925631,0.00030966912260326613,0.0011681299555902117,-0.05091500282287598,-5.954950332641602,-0.7836408615112305,21.83804702758789,0.3255147635936737,1.8674558401107788,-0.14392796158790588
1692349062402880218,88,1692349062402536239,,panda_joint1,panda_joint2,panda_joint3,panda_joint4,panda_joint5,panda_joint6,panda_joint7,-0.20716947350758463,-0.6743925580618375,0.04679242335241016,-2.1980281051099397,-0.06048905717462426,1.4997418623355316,0.7929997300946743,-0.0376410350440531,0.034208821129500695,-0.006151939368404,0.043562353923892565,-0.002479462324702957,0.002975528645711549,-0.0011640964160353554,-0.08662056922912598,-5.954950332641602,-0.8193464279174805,21.87771987915039,0.3374166190624237,1.9031614065170288,-0.11829318851232529
1692349062437165696,89,1692349062436571302,,panda_joint1,panda_joint2,panda_joint3,panda_joint4,panda_joint5,panda_joint6,panda_joint7,-0.20835102147055728,-0.6731524267659236,0.04664210053249359,-2.1964561482829406,-0.060550405336319,1.4998610288532142,0.7930018575969193,-0.036574169626643255,0.033298227533888274,-0.005055767437220489,0.044720502926071055,-0.0009740054408644856,0.0038208346342292338,-0.0005114057305460681,-0.05091500282287598,-5.883539199829102,-0.7439680099487305,21.79837417602539,0.3191060721874237,1.8821042776107788,-0.13751927018165588
1692349062471034169,90,1692349062470528903,,panda_joint1,panda_joint2,panda_joint3,panda_joint4,panda_joint5,panda_joint6,panda_joint7,-0.20948282037894,-0.6719343149478811,0.04649506250710567,-2.194842628874188,-0.0605906069878083,1.499927067388783,0.792998189597494,-0.03730321024174132,0.037443439559972695,-0.004446268664239242,0.044843490274374356,-0.0005558619928476708,0.002171261037444663,-0.001150894334364679,-0.05091500282287598,-5.919244766235352,-0.7836408615112305,21.83804702758789,0.3310079276561737,1.9168943166732788,-0.10456027835607529
1692349062504764262,91,1692349062504610345,,panda_joint1,panda_joint2,panda_joint3,panda_joint4,panda_joint5,panda_joint6,panda_joint7,-0.21059001448788842,-0.670670588415677,0.04632201776814193,-2.1932164369314506,-0.06062715997858442,1.5000362856775857,0.7930031946813576,-0.03513141144394905,0.03862948452832496,-0.005901847062052227,0.046697087685148984,0.0001239196846445868,0.0030093378798964,-0.00019405918748259147,-0.12629342079162598,-5.954950332641602,-0.8947248458862305,21.76266860961914,0.3191060721874237,1.9242185354232788,-0.11096896976232529
1692349062538876839,92,1692349062538595108,,panda_joint1,panda_joint2,panda_joint3,panda_joint4,panda_joint5,panda_joint6,panda_joint7,-0.2116946073074287,-0.6694125585985709,0.046163767445420646,-2.1916628112017,-0.060653565848861384,1.5001831072720822,0.7930011396854073,-0.032149788848150805,0.03924114405924971,-0.0026086511151332233,0.04299872166649019,-0.001692184873664425,0.0017314820949277446,0.0004919686496678017,-0.05091500282287598,-5.843866348266602,-0.7836408615112305,21.68332290649414,0.3374166190624237,1.9379514455795288,-0.13111057877540588
1692349062573168950,93,1692349062572594006,,panda_joint1,panda_joint2,panda_joint3,panda_joint4,panda_joint5,panda_joint6,panda_joint7,-0.21279720322151102,-0.6681196665412255,0.0460089869294577,-2.1902064326420203,-0.06067163448063677,1.5002751579405456,0.7930000736735872,-0.03223253456240688,0.038391829255970684,-0.0018332356280688882,0.039568774395440376,0.00011642558088095439,0.001112950425655837,0.0005428166706124025,-0.19770455360412598,-5.954950332641602,-0.8550519943237305,21.76266860961914,0.3374166190624237,1.9379514455795288,-0.11829318851232529
1692349062607226171,94,1692349062606548752,,panda_joint1,panda_joint2,panda_joint3,panda_joint4,panda_joint5,panda_joint6,panda_joint7,-0.21393034524047366,-0.6668279032243671,0.04582868747006583,-2.1888357711607385,-0.060682936959957585,1.5004087929913037,0.7930039881016908,-0.03261813796166062,0.03336490307542131,-0.0029226506788517016,0.039693034793524734,-0.002434193675505987,0.00030695142761046523,0.0014233361218042515,-0.12629342079162598,-6.101739883422852,-0.8550519943237305,21.87771987915039,0.3374166190624237,1.9736570119857788,-0.15674534440040588
1692349062641278879,95,1692349062640654077,,panda_joint1,panda_joint2,panda_joint3,panda_joint4,panda_joint5,panda_joint6,panda_joint7,-0.21502467725607682,-0.6655643866767831,0.04564431106883005,-2.1874823833651207,-0.060701631302100614,1.5005862330893112,0.792997477521344,-0.031175091509249533,0.03421845881894984,-0.006864734764585615,0.042070891461577775,0.00026548931347286387,0.004179557721182568,-0.00025934278212652503,0.06016898155212402,-6.248529434204102,-0.8193464279174805,21.83804702758789,0.3374166190624237,1.9663327932357788,-0.09815158694982529
1692349062675207170,96,1692349062674548159,,panda_joint1,panda_joint2,panda_joint3,panda_joint4,panda_joint5,panda_joint6,panda_joint7,-0.2160366506897811,-0.6643160271551444,0.04545406646011712,-2.186054439682914,-0.060713264838932704,1.5006906362283376,0.7930036349609337,-0.02694267398566842,0.03967188758742217,-0.006915432085835482,0.04358302214038928,-0.002856570800960738,0.005185702680796329,0.0013250947473553705,-0.05091500282287598,-6.323907852172852,-0.7836408615112305,21.83804702758789,0.3557271659374237,2.0020382404327393,-0.15033665299415588
1692349062709107097,97,1692349062708642495,,panda_joint1,panda_joint2,panda_joint3,panda_joint4,panda_joint5,panda_joint6,panda_joint7,-0.21706521568958803,-0.663149284769537,0.04527370458917147,-2.184582188190302,-0.06071645903367323,1.5008736955600415,0.7929960539121093,-0.03123197294409137,0.025895453788074268,-0.006818237164875754,0.04300255708261113,0.00026090425364192914,0.0016725195528368608,-0.0011445103048404836,-0.015209436416625977,-6.248529434204102,-0.8193464279174805,21.83804702758789,0.3557271659374237,1.9809812307357788,-0.08533420413732529
1692349062742761797,98,1692349062742517573,,panda_joint1,panda_joint2,panda_joint3,panda_joint4,panda_joint5,panda_joint6,panda_joint7,-0.2180409894771166,-0.6619998082694214,0.045087656235317165,-2.1830773040912073,-0.060718140982661685,1.501026029030246,0.7930033129631117,-0.02622216837927488,0.03396744675273688,-0.006335318340578495,0.0481358391316325,-0.00017416592788645,0.006530778659880419,5.432975696039014e-05,-0.08662056922912598,-6.248529434204102,-0.8550519943237305,21.79837417602539,0.3676290214061737,2.0230953693389893,-0.11096896976232529
1692349062777316613,99,1692349062776593555,,panda_joint1,panda_joint2,panda_joint3,panda_joint4,panda_joint5,panda_joint6,panda_joint7,-0.21899423928000986,-0.6608582592550165,0.04489257180220477,-2.181521204149865,-0.06071519826850967,1.5011863572904638,0.7929981940153448,-0.028407148753225447,0.03616039778963108,-0.008062329212613423,0.05106043822003865,-0.002861036785883063,0.0024166412642491674,-0.0007679055489111685,-0.12629342079162598,-6.212823867797852,-0.9304304122924805,21.79837417602539,0.3731221854686737,1.9947141408920288,-0.10456027835607529
1692349062811033430,100,1692349062810542446,,panda_joint1,panda_joint2,panda_joint3,panda_joint4,panda_joint5,panda_joint6,panda_joint7,-0.21995592445931803,-0.6596917684015218,0.04467022285525969,-2.179952499756381,-0.06071794420056922,1.5013958898606372,0.7930052042852248,-0.03249774788774988,0.029139327434890287,-0.012620896852646408,0.043631565122323586,-0.000179195040457111,0.006834811630099579,-0.0005408555899803845,-0.12629342079162598,-6.212823867797852,-0.8550519943237305,21.72299575805664,0.3978414237499237,1.9873899221420288,-0.13751927018165588
1692349062845992434,101,1692349062844530210,,panda_joint1,panda_joint2,panda_joint3,panda_joint4,panda_joint5,panda_joint6,panda_joint7,-0.22096228072468888,-0.6585091415106291,0.04443549087138298,-2.1784604027223256,-0.06071579251193327,1.5016269126565511,0.7929981896035504,-0.032254104867572374,0.028485538436350683,-0.008857166122712909,0.039038391784478654,-0.0003140752663649268,0.006128866830549393,-0.0021406201314187563,-0.08662056922912598,-6.212823867797852,-0.8193464279174805,21.72299575805664,0.4216451346874237,2.0020382404327393,-0.10456027835607529
1692349062879447578,102,1692349062878511559,,panda_joint1,panda_joint2,panda_joint3,panda_joint4,panda_joint5,panda_joint6,panda_joint7,-0.22194840492226148,-0.6572907044084563,0.04418300181935878,-2.1770768156850773,-0.0607123146520183,1.5017526135161496,0.7930023285993663,-0.028607105444253246,0.03692674371399957,-0.004648527009031994,0.039551910717924764,-2.120465575455149e-05,0.004930144733005994,1.4794249059643722e-06,-0.015209436416625977,-6.323907852172852,-0.8193464279174805,21.72299575805664,0.4335469901561737,2.0084469318389893,-0.13751927018165588
1692349062914187189,103,1692349062912588440,,panda_joint1,panda_joint2,panda_joint3,panda_joint4,panda_joint5,panda_joint6,panda_joint7,-0.22291415789803048,-0.656057975995121,0.043966227689146,-2.1757791449223616,-0.06070405644622114,1.5019681625060777,0.7929971762777123,-0.033177114173124335,0.039395444502689114,-0.001656682779632394,0.03884953548739083,7.467888877092871e-05,0.012413662784046419,-0.0003837780353563618,0.024463415145874023,-6.359613418579102,-0.8947248458862305,21.72299575805664,0.4454488456249237,2.0368282794952393,-0.09174289554357529
1692349062947231655,104,1692349062946535720,,panda_joint1,panda_joint2,panda_joint3,panda_joint4,panda_joint5,panda_joint6,panda_joint7,-0.22381997323924044,-0.6548289858179768,0.043734327699051126,-2.174500094474307,-0.06069171168140321,1.5021437306425212,0.7930032758620156,-0.031964292896950366,0.03711637979593807,-0.008912645138527285,0.03825545125089893,0.0007226553034449725,0.005864990726292984,-3.938188645344735e-05,-0.05091500282287598,-6.431024551391602,-0.8193464279174805,21.79837417602539,0.4637593924999237,2.0295040607452393,-0.15033665299415588
1692349062981550009,105,1692349062980540256,,panda_joint1,panda_joint2,panda_joint3,panda_joint4,panda_joint5,panda_joint6,panda_joint7,-0.2247334329668713,-0.6535821275028294,0.04353635713655975,-2.173165108025428,-0.06066210013175441,1.5024111678899004,0.792997839563699,-0.027398902284526926,0.035431197275801796,-0.00630070165801074,0.04184671563701321,-7.225193933277066e-05,0.0018094403504867328,-0.0008021105601794996,-0.08662056922912598,-6.617486953735352,-0.8193464279174805,21.79837417602539,0.4875631034374237,2.0295040607452393,-0.09815158694982529
1692349063015061149,106,1692349063014523039,,panda_joint1,panda_joint2,panda_joint3,panda_joint4,panda_joint5,panda_joint6,panda_joint7,-0.2256731779266504,-0.6523880746632768,0.043347613101959184,-2.171776919284536,-0.06059758390356092,1.5026289045404722,0.7929974775388404,-0.033811914830231014,0.03198284756086507,-0.0028885809089360718,0.041635721553374014,0.0008564652775560912,0.010435152360499043,-0.0011456575153561796,-0.08662056922912598,-6.653192520141602,-0.8550519943237305,21.87771987915039,0.5058736801147461,2.0578854084014893,-0.09815158694982529
1692349063049098803,107,1692349063048517653,,panda_joint1,panda_joint2,panda_joint3,panda_joint4,panda_joint5,panda_joint6,panda_joint7,-0.22659516522253173,-0.6512347375592891,0.043122989274489175,-2.1703453066433362,-0.060523724966976736,1.5028769977915524,0.7929989414116442,-0.024889390667852233,0.03333217710605097,-0.008449232006180975,0.04154665805492047,-0.00019672007687420852,0.0023092780539493273,-0.0010873031470895126,-0.12629342079162598,-6.542108535766602,-0.8947248458862305,21.76266860961914,0.5177755355834961,2.0652096271514893,-0.11096896976232529
1692349063083197130,108,1692349063082568473,,panda_joint1,panda_joint2,panda_joint3,panda_joint4,panda_joint5,panda_joint6,panda_joint7,-0.22750176756190757,-0.6501185709104497,0.04288163032196423,-2.1688716538851645,-0.06045363694091685,1.5031156711887883,0.7929985488666632,-0.027172510042635167,0.030708104911845554,-0.009799681510883581,0.045712820738951734,0.004614635415809877,0.010357615259065343,-0.000691734551527144,-0.05091500282287598,-6.506402969360352,-0.8550519943237305,21.79837417602539,0.5479879379272461,2.0652096271514893,-0.10456027835607529
1692349063117165260,109,1692349063116620104,,panda_joint1,panda_joint2,panda_joint3,panda_joint4,panda_joint5,panda_joint6,panda_joint7,-0.22836501273534257,-0.649028327576359,0.04261168537535027,-2.167386658001822,-0.06034695729178646,1.5033544697012016,0.7930047160731098,-0.029572601992863934,0.03458913193748576,-0.009120485432172408,0.04237505973409128,0.007458762484793489,0.013236214042657495,-0.00043932381734413403,-0.08662056922912598,-6.542108535766602,-0.7836408615112305,21.76266860961914,0.5479879379272461,2.0230953693389893,-0.13111057877540588
1692349063151163284,110,1692349063150532672,,panda_joint1,panda_joint2,panda_joint3,panda_joint4,panda_joint5,panda_joint6,panda_joint7,-0.2292612201787676,-0.6479405340736567,0.04236802255926487,-2.1659554158886367,-0.06025899712280794,1.5036301068899534,0.7930044649449378,-0.028378423440093416,0.033010684019285065,-0.005426087881420613,0.04702531036629496,0.0007356749767468695,0.013114159923266382,0.0017232682609406903,-0.05091500282287598,-6.581781387329102,-0.9304304122924805,21.60794448852539,0.5608053207397461,2.0084469318389893,-0.15674534440040588
1692349063185093816,111,1692349063184524694,,panda_joint1,panda_joint2,panda_joint3,panda_joint4,panda_joint5,panda_joint6,panda_joint7,-0.23013300611556733,-0.6468606805162469,0.04211462044579391,-2.1646501038921424,-0.060124927738478086,1.5038652047726286,0.7930025637845198,-0.025376335660226842,0.03227182845394183,-0.008640663128585907,0.03650210590481778,0.008283906662170241,0.016182682792181782,-2.1272207702895213e-05,-0.12629342079162598,-6.506402969360352,-0.8193464279174805,21.76266860961914,0.5662984848022461,2.0578854084014893,-0.14392796158790588
1692349063218824605,112,1692349063218534193,,panda_joint1,panda_joint2,panda_joint3,panda_joint4,panda_joint5,panda_joint6,panda_joint7,-0.23096639599871868,-0.6457403492867172,0.04189536587857984,-2.163398380504383,-0.06003057530471663,1.504121623605258,0.7930011396309488,-0.02574037217139102,0.031909045869619415,-0.005410373766803774,0.038617756013512264,0.004695325706538276,0.0010976511584986663,0.0006383810666154966,-0.015209436416625977,-6.542108535766602,-0.8193464279174805,21.72299575805664,0.5901021957397461,2.0652096271514893,-0.13111057877540588
1692349063253275008,113,1692349063252586142,,panda_joint1,panda_joint2,panda_joint3,panda_joint4,panda_joint5,panda_joint6,panda_joint7,-0.2317758780029933,-0.6445617111020312,0.04169401159540711,-2.1621699972076542,-0.059880062657494945,1.504379864543886,0.7930039879388469,-0.02460916707259236,0.03335658436126881,-0.008549737645129887,0.03534318390092216,0.0034473655786586557,0.006877806975846582,0.0010942846620596944,-0.08662056922912598,-6.728570938110352,-0.8947248458862305,21.76266860961914,0.6029195785522461,2.0441524982452393,-0.15674534440040588
1692349063286749708,114,1692349063286549365,,panda_joint1,panda_joint2,panda_joint3,panda_joint4,panda_joint5,panda_joint6,panda_joint7,-0.23254880467153655,-0.6433839656562736,0.04149836214525243,-2.160951770203698,-0.05977612316215757,1.5046545701232683,0.7930004276265822,-0.02520822469398789,0.03016482031574024,-0.0057432053059649265,0.041264271006881084,0.0035332625368983935,0.011821440235263048,-0.0013017393422564251,-0.015209436416625977,-6.835687637329102,-0.9304304122924805,21.87771987915039,0.6148214340209961,2.0578854084014893,-0.12470187991857529
1692349063321200272,115,1692349063320510803,,panda_joint1,panda_joint2,panda_joint3,panda_joint4,panda_joint5,panda_joint6,panda_joint7,-0.233356047725764,-0.6421899184598066,0.041292464313853965,-2.1596617676860883,-0.05963137447654123,1.5049223189824597,0.7930004412893478,-0.021199197552792134,0.034106188625244074,-0.0026742479770734033,0.03848954919119089,0.011360640985227682,0.009019980749734776,-0.0009799565729858419,-0.16199898719787598,-6.875360488891602,-1.0415143966674805,21.83804702758789,0.6203145980834961,2.0368282794952393,-0.12470187991857529
1692349063355206906,116,1692349063354556842,,panda_joint1,panda_joint2,panda_joint3,panda_joint4,panda_joint5,panda_joint6,panda_joint7,-0.234189662495962,-0.6410397212932459,0.04105777484211619,-2.158332037431373,-0.05949664344316915,1.5051951784923876,0.7930025642777847,-0.025523451392448018,0.03444138825194794,-0.0036348937263682795,0.039770280595776725,0.005461802457591534,0.00723476756261452,-0.00020711630672156349,-0.05091500282287598,-6.911066055297852,-0.9304304122924805,21.83804702758789,0.6450338363647461,2.0578854084014893,-0.14392796158790588
1692349063389164516,117,1692349063388528432,,panda_joint1,panda_joint2,panda_joint3,panda_joint4,panda_joint5,panda_joint6,panda_joint7,-0.23501058663211358,-0.6399281992360112,0.04078550043858909,-2.15700587949055,-0.05933234627891298,1.5054881322506561,0.792999728724121,-0.024160617320081554,0.03334076523957484,-0.005672305890732665,0.03671214888949061,0.004434992009513809,0.01701177451575311,-0.0001042852443966007,-0.08662056922912598,-6.946771621704102,-0.7836408615112305,21.83804702758789,0.6331319808959961,2.0578854084014893,-0.11829318851232529
1692349063423146612,118,1692349063422515092,,panda_joint1,panda_joint2,panda_joint3,panda_joint4,panda_joint5,panda_joint6,panda_joint7,-0.23580512826342132,-0.638841194840821,0.04051744751260633,-2.155678538864473,-0.059180267405155806,1.505773786826683,0.7929997161487421,-0.01952773050705216,0.029664953027046262,-0.008127289226491427,0.03567575655419993,0.0077312159189770295,0.009950220025451928,2.0213126748799544e-05,-0.12629342079162598,-6.982477188110352,-0.9661359786987305,21.83804702758789,0.6450338363647461,2.0505611896514893,-0.11829318851232529
1692349063456759834,119,1692349063456622341,,panda_joint1,panda_joint2,panda_joint3,panda_joint4,panda_joint5,panda_joint6,panda_joint7,-0.23659857226216774,-0.6377641827735253,0.04022374265105658,-2.1543101336749464,-0.059017053322334076,1.506071889706927,0.7930000732698121,-0.02164459213036491,0.032940572983693614,-0.008323887495081386,0.04054252977860982,0.0009663853491546884,0.009907994615464693,0.0006158213667766312,-0.05091500282287598,-6.982477188110352,-0.7439680099487305,21.83804702758789,0.6752462387084961,2.0578854084014893,-0.11829318851232529
1692349063491439972,120,1692349063490627752,,panda_joint1,panda_joint2,panda_joint3,panda_joint4,panda_joint5,panda_joint6,panda_joint7,-0.23733157825936743,-0.636709304427269,0.03995201438338416,-2.152951217887582,-0.05883913763786641,1.5063800083781573,0.7929989428844856,-0.024164389041177858,0.030983626657835737,-0.005935991429528246,0.04595094584759425,0.0004801523541810418,0.0070763717082013835,0.00025430254372563513,-0.12629342079162598,-6.982477188110352,-0.8947248458862305,21.60794448852539,0.6807394027709961,2.0578854084014893,-0.11096896976232529
1692349063525188758,121,1692349063524560051,,panda_joint1,panda_joint2,panda_joint3,panda_joint4,panda_joint5,panda_joint6,panda_joint7,-0.2380999431059769,-0.6356877742147128,0.039725459837204026,-2.1516768518425633,-0.058696599321632195,1.5067122892257965,0.7930039894098966,-0.02755364438171837,0.027576715916058616,-0.009823561593129096,0.03674451780742337,-0.00028161090683196614,0.0045062825932459865,0.0016710342359191029,-0.015209436416625977,-6.946771621704102,-0.9304304122924805,21.68332290649414,0.6926412582397461,2.0505611896514893,-0.15674534440040588
1692349063558855141,122,1692349063558582295,,panda_joint1,panda_joint2,panda_joint3,panda_joint4,panda_joint5,panda_joint6,panda_joint7,-0.2388459918108873,-0.6346731910265498,0.03948314019248938,-2.1504537838676967,-0.05849209123529442,1.5070091731644952,0.7930004805378217,-0.024509174411825242,0.030334343570653316,-0.007841098415314487,0.04240918583556901,0.003112635062981901,0.013113604983067581,0.00028791846779120775,-0.05091500282287598,-7.022150039672852,-0.8947248458862305,21.68332290649414,0.6926412582397461,2.0505611896514893,-0.12470187991857529
1692349063593154200,123,1692349063592504774,,panda_joint1,panda_joint2,panda_joint3,panda_joint4,panda_joint5,panda_joint6,panda_joint7,-0.2396129195532531,-0.6336540151125373,0.039239700703706956,-2.149281433263164,-0.05833371338123749,1.5073102375654344,0.7930047397601666,-0.027079079498400743,0.033607248966874545,-0.00945697935847612,0.028911038972345315,0.0010410192461269353,0.0031421191674445674,0.0004999793383545189,-0.08662056922912598,-6.982477188110352,-0.9304304122924805,21.68332290649414,0.7054586410522461,2.0725338459014893,-0.16315403580665588
1692349063627230884,124,1692349063626526846,,panda_joint1,panda_joint2,panda_joint3,panda_joint4,panda_joint5,panda_joint6,panda_joint7,-0.24036987591787223,-0.6325919918622601,0.039004635360738026,-2.1481381553127146,-0.05814789310570312,1.507625019562534,0.7930051159845151,-0.02925201410976011,0.03522400454411683,-0.006024068674039623,0.03387892254498796,0.006289895768473627,0.0066662904705048305,-0.0001438759804059591,-0.05091500282287598,-7.093561172485352,-0.8947248458862305,21.72299575805664,0.7109518051147461,2.0725338459014893,-0.13751927018165588
1692349063661198972,125,1692349063660531663,,panda_joint1,panda_joint2,panda_joint3,panda_joint4,panda_joint5,panda_joint6,panda_joint7,-0.2410834522426529,-0.6314850186097067,0.03873866838726517,-2.146954909524466,-0.057953525676085235,1.5079397074746248,0.7930018958592855,-0.019877194575622335,0.03792066217208425,-0.003229383838790138,0.04028085217319824,0.0069546332314329735,0.004887409119633939,-0.00046511702013675405,-0.08662056922912598,-7.129266738891602,-0.8550519943237305,21.83804702758789,0.7347555160522461,2.0441524982452393,-0.13751927018165588
1692349063695436938,126,1692349063694587561,,panda_joint1,panda_joint2,panda_joint3,panda_joint4,panda_joint5,panda_joint6,panda_joint7,-0.24176655679356754,-0.6303674661934698,0.038482392464559055,-2.145708229322008,-0.05776815475609041,1.5082193766816705,0.7929997154945725,-0.013811808649688303,0.031240445796509392,-0.005247184490567831,0.037443675669601134,0.0006745448827040779,0.008647660003011159,-0.0009993553375188232,-0.08662056922912598,-7.240350723266602,-0.8947248458862305,21.83804702758789,0.7347555160522461,2.0725338459014893,-0.11829318851232529
1692349063728849955,127,1692349063728575738,,panda_joint1,panda_joint2,panda_joint3,panda_joint4,panda_joint5,panda_joint6,panda_joint7,-0.2424799522427665,-0.629273331078469,0.038245800727490384,-2.1444684745895786,-0.05755911858604979,1.508554965787061,0.7930017707632657,-0.021050584407417815,0.02715667976479391,-0.010901051478860063,0.03714148179835266,0.0065925232840663255,0.009126060236299941,-0.0009711797396738203,-0.08662056922912598,-7.240350723266602,-0.9304304122924805,21.76266860961914,0.7228536605834961,2.0725338459014893,-0.09815158694982529
1692349063763082478,128,1692349063762518283,,panda_joint1,panda_joint2,panda_joint3,panda_joint4,panda_joint5,panda_joint6,panda_joint7,-0.24317769697081568,-0.6281939957505206,0.037979892571257653,-2.1432354685103063,-0.057381948177948866,1.5088665363940577,0.7929982337511015,-0.01822332282647559,0.032449243631041604,-0.007987982235144388,0.037390699378605084,0.006250682858501982,0.006077361171316449,-1.5700438110930135e-05,-0.08662056922912598,-7.315729141235352,-0.8193464279174805,21.79837417602539,0.7347555160522461,2.0725338459014893,-0.10456027835607529
1692349063797194860,129,1692349063796505179,,panda_joint1,panda_joint2,panda_joint3,panda_joint4,panda_joint5,panda_joint6,panda_joint7,-0.24385206691295755,-0.6271496443535746,0.03771817777247137,-2.1419657985885565,-0.05715390831198434,1.5091798566899934,0.7930018517258746,-0.019437423828462773,0.03021972599779184,-0.006317693275963172,0.03164721436927749,0.01263866164809381,0.007003429329206466,6.863504653780595e-05,-0.08662056922912598,-7.315729141235352,-0.8193464279174805,21.87771987915039,0.7530660629272461,2.0578854084014893,-0.13751927018165588
1692349063830753767,130,1692349063830509527,,panda_joint1,panda_joint2,panda_joint3,panda_joint4,panda_joint5,panda_joint6,panda_joint7,-0.24451656774878355,-0.6261417935616437,0.03748385239677351,-2.1406816680941616,-0.056948397588403615,1.50950526342646,0.7930018517136794,-0.022016698198810872,0.02967153862902631,-0.010173778199491515,0.040280317036194634,0.00100456248029291,0.006883742418960001,0.0015040288942071696,-0.015209436416625977,-7.315729141235352,-0.8550519943237305,21.79837417602539,0.7475728988647461,2.0652096271514893,-0.13751927018165588
1692349063864992079,131,1692349063864559128,,panda_joint1,panda_joint2,panda_joint3,panda_joint4,panda_joint5,panda_joint6,panda_joint7,-0.24513738389832554,-0.6251405034315045,0.037271530340041895,-2.1394673002784526,-0.05670588761665281,1.5098458726028705,0.7930036504043999,-0.016198138655268594,0.031585009943721806,-0.004336061388511094,0.03677094020402853,0.008734079921883227,0.011564311304248908,0.0004391295548218028,-0.12629342079162598,-7.240350723266602,-0.8947248458862305,21.64365005493164,0.7475728988647461,2.0578854084014893,-0.14392796158790588
1692349063899180978,132,1692349063898528892,,panda_joint1,panda_joint2,panda_joint3,panda_joint4,panda_joint5,panda_joint6,panda_joint7,-0.24576654893639893,-0.624149473227043,0.03706230107569544,-2.138328528481528,-0.056493619367669654,1.5101664118360505,0.7930025652510303,-0.020038144627773227,0.0368534832101571,-0.007609386360087957,0.028778852238281742,0.005818367086613364,0.006643705608931353,-2.6282957783837284e-05,-0.08662056922912598,-7.426813125610352,-0.8193464279174805,21.72299575805664,0.7530660629272461,2.0652096271514893,-0.14392796158790588
1692349063933313242,133,1692349063932613728,,panda_joint1,panda_joint2,panda_joint3,panda_joint4,panda_joint5,panda_joint6,panda_joint7,-0.24641774475727066,-0.6231888707914266,0.036846408782962164,-2.1372337672325323,-0.056241753926530635,1.5104828498165688,0.793000467289653,-0.013830915261878919,0.02853016434267922,-0.006917158000129684,0.02836244478331593,0.007610081296749788,0.004823952795536262,-4.105926316154881e-05,-0.12629342079162598,-7.315729141235352,-0.8947248458862305,21.79837417602539,0.7594747543334961,2.0652096271514893,-0.12470187991857529
1692349063967029663,134,1692349063966528420,,panda_joint1,panda_joint2,panda_joint3,panda_joint4,panda_joint5,panda_joint6,panda_joint7,-0.24706571218283951,-0.6222126175276915,0.03660964952823665,-2.136157469943602,-0.05601340195183333,1.5107837516864682,0.7930040291463152,-0.017006115665022862,0.027670626649060892,-0.008019182796076059,0.03157948432497175,0.0017608815694115543,0.013087769812506127,0.000825727161647351,-0.05091500282287598,-7.426813125610352,-0.7836408615112305,21.76266860961914,0.7411642074584961,2.0862667560577393,-0.15674534440040588
1692349064001289861,135,1692349064000524628,,panda_joint1,panda_joint2,panda_joint3,panda_joint4,panda_joint5,panda_joint6,panda_joint7,-0.24768613533939865,-0.6212394204981355,0.0363429104470726,-2.1350937244242227,-0.055753749309272016,1.5111155458921979,0.7929990213741798,-0.016505457205568196,0.029693445584393303,-0.003068710596127492,0.02836711537045743,0.007717482036199504,0.008111515274188541,0.00234615066295938,-0.08662056922912598,-7.462518692016602,-0.8947248458862305,21.76266860961914,0.7777853012084961,2.0652096271514893,-0.11096896976232529
1692349064035201926,136,1692349064034522460,,panda_joint1,panda_joint2,panda_joint3,panda_joint4,panda_joint5,panda_joint6,panda_joint7,-0.24831457545972951,-0.6202698009514449,0.03605283312306968,-2.133965564106535,-0.055526367678288044,1.5114160922512774,0.7930011396308752,-0.0168776052767002,0.026918081080653043,-0.010002434803399999,0.03133714036660794,0.008057071374627287,0.009579506824487152,0.0004933687035675157,-0.08662056922912598,-7.426813125610352,-0.8193464279174805,21.76266860961914,0.7594747543334961,2.0789425373077393,-0.13111057877540588
1692349064069272852,137,1692349064068640268,,panda_joint1,panda_joint2,panda_joint3,panda_joint4,panda_joint5,panda_joint6,panda_joint7,-0.2489431351502255,-0.6192792814160594,0.03577157703801003,-2.1328148968404785,-0.05528630561342159,1.5117445211996252,0.7930047063748371,-0.019309561970695294,0.031331208295700456,-0.009955702042262185,0.03372035965626483,0.003396276341263252,0.00568250992034545,0.0009575211354706562,-0.08662056922912598,-7.573602676391602,-0.7836408615112305,21.83804702758789,0.7594747543334961,2.0999996662139893,-0.15033665299415588
1692349064102972446,138,1692349064102574773,,panda_joint1,panda_joint2,panda_joint3,panda_joint4,panda_joint5,panda_joint6,panda_joint7,-0.24956627770556528,-0.618289134847597,0.03549933947639034,-2.1316672023970153,-0.055056034968384925,1.5120409686891696,0.793006143844692,-0.01757490210614806,0.027109364015485353,-0.008677302573483271,0.03278388780089592,0.011023360985785647,0.00773339459279978,0.0011215191239421238,-0.08662056922912598,-7.462518692016602,-0.8193464279174805,21.79837417602539,0.7530660629272461,2.0935909748077393,-0.16315403580665588
1692349064137188476,139,1692349064136536341,,panda_joint1,panda_joint2,panda_joint3,panda_joint4,panda_joint5,panda_joint6,panda_joint7,-0.25013630330419917,-0.6172898034422085,0.03523436712562623,-2.1305263009103412,-0.05481741285270203,1.5123657473163798,0.7930040276927648,-0.023102901724635302,0.027194709368892338,-0.005025921080645753,0.027723009962885993,0.008489954293686874,0.012259024966923084,0.0007446846396503369,-0.08662056922912598,-7.573602676391602,-0.8550519943237305,21.91739273071289,0.7530660629272461,2.1073238849639893,-0.15674534440040588
1692349064171085829,140,1692349064170562636,,panda_joint1,panda_joint2,panda_joint3,panda_joint4,panda_joint5,panda_joint6,panda_joint7,-0.25072993878114586,-0.6162828338162114,0.03500293014165758,-2.129332748459434,-0.05456852136358775,1.512709495213736,0.7929983088067918,-0.014521688623458585,0.03168598749654487,-0.009860302580192954,0.03611015408275986,0.010951314643914675,0.011610388741884076,-0.0008593188359785157,-0.12629342079162598,-7.680719375610352,-0.8550519943237305,21.76266860961914,0.7530660629272461,2.0862667560577393,-0.10456027835607529
1692349064205012991,141,1692349064204510059,,panda_joint1,panda_joint2,panda_joint3,panda_joint4,panda_joint5,panda_joint6,panda_joint7,-0.25134041409343216,-0.6152701472219704,0.034748195617335303,-2.128134810493047,-0.054329597160634034,1.5130205140598014,0.7929971230780982,-0.018818603428054352,0.03405335188875762,-0.006614969789292369,0.03129783850409238,0.005725256669864476,0.006381873151912657,-0.0015997800773772312,-0.08662056922912598,-7.680719375610352,-0.8193464279174805,21.79837417602539,0.7594747543334961,2.0935909748077393,-0.09174289554357529
1692349064238791887,142,1692349064238558040,,panda_joint1,panda_joint2,panda_joint3,panda_joint4,panda_joint5,panda_joint6,panda_joint7,-0.25192831648974373,-0.6143002479465459,0.03447737065187401,-2.126994568984856,-0.05407948669538344,1.5133382895635297,0.7930047000211286,-0.021846741798988902,0.02697968627759732,-0.005360940053817211,0.03404010249806798,0.0027510278431129094,0.003897171977507433,0.0014696633047110786,-0.08662056922912598,-7.645013809204102,-0.7836408615112305,21.79837417602539,0.7649679183959961,2.0935909748077393,-0.16315403580665588
1692349064272980801,143,1692349064272718567,,panda_joint1,panda_joint2,panda_joint3,panda_joint4,panda_joint5,panda_joint6,panda_joint7,-0.2525209213902006,-0.6133701557446125,0.03421202380361585,-2.1259021115397903,-0.05383959596528068,1.5136676057109495,0.7930057714472957,-0.017146558569817325,0.025680333089324523,-0.008135537580397013,0.03134489808015659,0.007635622469302464,0.0027944937945700095,0.0009333398964832066,-0.12629342079162598,-7.720392227172852,-0.8193464279174805,21.76266860961914,0.7649679183959961,2.1073238849639893,-0.16315403580665588
1692349064306920659,144,1692349064306546557,,panda_joint1,panda_joint2,panda_joint3,panda_joint4,panda_joint5,panda_joint6,panda_joint7,-0.253102362636834,-0.6124501266038624,0.033937338144775335,-2.1248508498001555,-0.05359334853001713,1.513988488125845,0.793002621238112,-0.0195566794544574,0.027122437064922452,-0.009409024514351133,0.03139994755758704,0.0038212752556708073,0.015159342617849268,-0.0002536689538528427,-0.08662056922912598,-7.720392227172852,-0.7439680099487305,21.72299575805664,0.7777853012084961,2.0935909748077393,-0.14392796158790588
1692349064340880563,145,1692349064340582123,,panda_joint1,panda_joint2,panda_joint3,panda_joint4,panda_joint5,panda_joint6,panda_joint7,-0.2536712250405008,-0.6115425579121806,0.03367634779948772,-2.123833048598869,-0.05333270792651865,1.5143096534784974,0.7930032905785417,-0.01195099287939197,0.022786040725358926,-0.0073930148482554215,0.025304867520049207,0.011658037423191327,0.01364292504328861,0.0019001295774798972,-0.08662056922912598,-7.720392227172852,-0.7439680099487305,21.76266860961914,0.7649679183959961,2.0999996662139893,-0.15033665299415588
1692349064374977259,146,1692349064374589028,,panda_joint1,panda_joint2,panda_joint3,panda_joint4,panda_joint5,panda_joint6,panda_joint7,-0.2542090610983727,-0.6106416588553181,0.03343186117486705,-2.122835811197903,-0.05306156917829221,1.5146430664488606,0.7930040017287984,-0.01738416553083808,0.020718813667012014,-0.005685542796799927,0.028936530850530245,0.005796919826320619,0.013722269783419096,0.00073993316332079,-0.08662056922912598,-7.756097793579102,-0.7836408615112305,21.76266860961914,0.7832784652709961,2.0999996662139893,-0.15674534440040588
1692349064409040501,147,1692349064408512944,,panda_joint1,panda_joint2,panda_joint3,panda_joint4,panda_joint5,panda_joint6,panda_joint7,-0.25472625701175056,-0.6097560522315959,0.03321198388355868,-2.12185261946113,-0.05277766745573834,1.5149617598420115,0.7930066004367369,-0.012962973684117814,0.025889769497119453,-0.0061803112285260635,0.03636829320196736,0.009272966990771885,0.003625125469077726,0.0009983824643140934,-0.12629342079162598,-7.867181777954102,-0.8550519943237305,21.76266860961914,0.7832784652709961,2.1073238849639893,-0.17047825455665588
1692349064442460413,148,1692349064442178395,,panda_joint1,panda_joint2,panda_joint3,panda_joint4,panda_joint5,panda_joint6,panda_joint7,-0.2552716178835003,-0.6089007657363483,0.03301826007184306,-2.1208496135662283,-0.05251627103759505,1.5152782945323133,0.7930043508775285,-0.019501838236994005,0.02429508794516134,-0.0024769444007353863,0.03064834883634581,0.011077565658258829,0.013818022533306624,0.00038694303650166074,-0.05091500282287598,-7.791803359985352,-0.8550519943237305,21.72299575805664,0.7896871566772461,2.1210567951202393,-0.15033665299415588
1692349064475757364,149,1692349064475540052,,panda_joint1,panda_joint2,panda_joint3,panda_joint4,panda_joint5,panda_joint6,panda_joint7,-0.25579399753166326,-0.6080186601055768,0.03278955007962809,-2.119776940974399,-0.05223058097689514,1.5156090997383493,0.7930011398125705,-0.013861867237156083,0.028922583428355037,-0.007168294890954942,0.032427475340895316,0.0053852452502174564,0.0021653302533503204,0.0042334036488921225,-0.12629342079162598,-7.791803359985352,-0.7836408615112305,21.72299575805664,0.7649679183959961,2.1210567951202393,-0.13111057877540588
1692349064509752535,150,1692349064509572108,,panda_joint1,panda_joint2,panda_joint3,panda_joint4,panda_joint5,panda_joint6,panda_joint7,-0.25631078080614694,-0.6071415277243138,0.03256329425544584,-2.1187064080738183,-0.05195841121644029,1.515958499014098,0.7930082796908462,-0.01723587294342098,0.02109324531289098,-0.002685755473839234,0.03215059054440132,0.0030601022214671756,0.0038457105634199192,0.00026641389490973205,-0.12629342079162598,-7.680719375610352,-0.8193464279174805,21.68332290649414,0.7777853012084961,2.1073238849639893,-0.15674534440040588
1692349064543775067,151,1692349064543569438,,panda_joint1,panda_joint2,panda_joint3,panda_joint4,panda_joint5,panda_joint6,panda_joint7,-0.2568258656259714,-0.6062386292359074,0.03232971124621297,-2.1176496081109324,-0.051685966796612144,1.5163012046039466,0.7930067027310612,-0.013422221045250282,0.02235300808276168,-0.012523781804585398,0.028833775786700717,0.006776752185502863,0.009853876321248576,0.0011660016041474149,-0.05091500282287598,-7.791803359985352,-0.7836408615112305,21.76266860961914,0.7832784652709961,2.1073238849639893,-0.17688694596290588
1692349064578082298,152,1692349064577513707,,panda_joint1,panda_joint2,panda_joint3,panda_joint4,panda_joint5,panda_joint6,panda_joint7,-0.2573236627465255,-0.6053174827224658,0.03209604462738823,-2.1165458944449465,-0.051412452892812516,1.5166317050523015,0.7930034001408691,-0.01649095203785893,0.031009218959274144,-0.0021438051701712342,0.03778254229597846,0.00516812070620055,0.0024668902714008968,-0.0003291094522040705,-0.08662056922912598,-7.902887344360352,-0.8193464279174805,21.72299575805664,0.7777853012084961,2.1210567951202393,-0.15033665299415588
1692349064612185736,153,1692349064611529554,,panda_joint1,panda_joint2,panda_joint3,panda_joint4,panda_joint5,panda_joint6,panda_joint7,-0.25781518130465153,-0.604392839794987,0.03183413615843713,-2.1154435018386937,-0.051144285912740305,1.5169632092952507,0.7930072065950399,-0.016465009799292028,0.031026698686637686,-0.01160895550849858,0.03195816651078309,0.006062248059836558,0.007353684087918637,0.00026997515075803457,-0.16199898719787598,-8.013971328735352,-0.7836408615112305,21.76266860961914,0.7951803207397461,2.0999996662139893,-0.15674534440040588
1692349064645741567,154,1692349064645520318,,panda_joint1,panda_joint2,panda_joint3,panda_joint4,panda_joint5,panda_joint6,panda_joint7,-0.25829245525515654,-0.6034976314428937,0.031569129862664295,-2.114364948762153,-0.050878153901617366,1.5172947394925707,0.7930062273656143,-0.0126795431469099,0.022188533503283446,-0.009357838212994166,0.03137467936068432,0.004245005850262794,0.01195076830520397,-0.0013844793346063742,-0.12629342079162598,-7.867181777954102,-0.7439680099487305,21.76266860961914,0.8015890121459961,2.1073238849639893,-0.17688694596290588
1692349064680060788,155,1692349064679546977,,panda_joint1,panda_joint2,panda_joint3,panda_joint4,panda_joint5,panda_joint6,panda_joint7,-0.25876653659453225,-0.6026092931002847,0.03130424203414107,-2.113371327415956,-0.05060264046893845,1.5176304040808193,0.7929997156399247,-0.014031778880164858,0.024607209481020832,-0.006316049429891028,0.0236029846437805,0.009693444516310337,0.010311257012238234,-0.001058647305777334,-0.08662056922912598,-8.013971328735352,-0.7439680099487305,21.79837417602539,0.7951803207397461,2.1357052326202393,-0.11829318851232529
1692349064714129115,156,1692349064713534226,,panda_joint1,panda_joint2,panda_joint3,panda_joint4,panda_joint5,panda_joint6,panda_joint7,-0.25925868054636275,-0.6017423599289629,0.031062098488184028,-2.11244200262029,-0.05032621028728467,1.5179516577411545,0.793008733015015,-0.0179746612083905,0.02499833630979816,-0.006094334713809454,0.02779410474523123,0.010241489414960751,0.006850673403023955,0.0016122256588344476,-0.12629342079162598,-8.013971328735352,-0.7439680099487305,21.79837417602539,0.7951803207397461,2.1073238849639893,-0.17047825455665588
1692349064748911937,157,1692349064748641303,,panda_joint1,panda_joint2,panda_joint3,panda_joint4,panda_joint5,panda_joint6,panda_joint7,-0.2597213906808143,-0.6009185661315769,0.030845633098277973,-2.1115882648213025,-0.05006730396040015,1.5182527064388578,0.7930032898336028,-0.01971290432214281,0.026517403523879032,-0.006297341256966576,0.026219492757918756,0.010339008468341711,0.007912951193382835,0.00026802944194013204,-0.12629342079162598,-8.049676895141602,-0.7836408615112305,21.76266860961914,0.7951803207397461,2.1146481037139893,-0.15033665299415588
1692349064782773373,158,1692349064782579743,,panda_joint1,panda_joint2,panda_joint3,panda_joint4,panda_joint5,panda_joint6,panda_joint7,-0.2602494020762201,-0.5999669524925393,0.03056990089425632,-2.11060242436455,-0.04976311375204755,1.5186074401561414,0.7930040011897264,-0.016386742508507485,0.022877913114575505,-0.008828015738478709,0.027199166340933924,0.007955716357240246,0.009014106391048469,1.3476378654753034e-05,-0.08662056922912598,-8.085382461547852,-0.7082624435424805,21.72299575805664,0.7896871566772461,2.1146481037139893,-0.15674534440040588
1692349064817046367,159,1692349064816534320,,panda_joint1,panda_joint2,panda_joint3,panda_joint4,panda_joint5,panda_joint6,panda_joint7,-0.2607263253532854,-0.5990892192348294,0.030347589043969624,-2.1097088165054596,-0.049463713322178575,1.5189473754611964,0.7930032935300535,-0.011758681558268147,0.02344533532771895,-0.003353971258029286,0.02700135473711837,0.007984011287712615,0.007802736055965038,0.0007344511100622186,-0.12629342079162598,-8.160760879516602,-0.8193464279174805,21.79837417602539,0.8079977035522461,2.1283810138702393,-0.15033665299415588
1692349064850307793,160,1692349064850085095,,panda_joint1,panda_joint2,panda_joint3,panda_joint4,panda_joint5,panda_joint6,panda_joint7,-0.2611736398336155,-0.5982633010818892,0.030112592668469215,-2.108826845724927,-0.04916465327196106,1.5192895325225302,0.7930011793854741,-0.009211172142159487,0.032085737020817996,-0.00394808391961668,0.03108760890883882,0.015187348298262524,0.004460781026703584,-0.00020945426635254145,-0.12629342079162598,-8.271844863891602,-0.7836408615112305,21.79837417602539,0.7832784652709961,2.1146481037139893,-0.13111057877540588
1692349064883724770,161,1692349064883471707,,panda_joint1,panda_joint2,panda_joint3,panda_joint4,panda_joint5,panda_joint6,panda_joint7,-0.2616359738725918,-0.597445376934754,0.02987653400657619,-2.107877834682146,-0.04889782667343747,1.5196333965189697,0.7929997203850513,-0.014455795468923891,0.024709492841694467,-0.005936020163788119,0.021684554786814865,0.009924747289106481,0.0046275673020430745,-0.0006976415830757851,-0.16199898719787598,-8.160760879516602,-0.7836408615112305,21.79837417602539,0.8015890121459961,2.1146481037139893,-0.11829318851232529
1692349064917798484,162,1692349064917512103,,panda_joint1,panda_joint2,panda_joint3,panda_joint4,panda_joint5,panda_joint6,panda_joint7,-0.2620835870995544,-0.5966513670004726,0.02961366793318401,-2.106908041082749,-0.04861148888863847,1.5199712809035204,0.7930036861039953,-0.017038017132144697,0.020135152996217286,-0.011091503724749966,0.025394631916605723,0.0023450722767230066,0.012396056355546074,-0.0003653364694539349,-0.12629342079162598,-8.271844863891602,-0.7439680099487305,21.76266860961914,0.8079977035522461,2.1357052326202393,-0.12470187991857529
1692349064952212489,163,1692349064951658040,,panda_joint1,panda_joint2,panda_joint3,panda_joint4,panda_joint5,panda_joint6,panda_joint7,-0.26253503908962605,-0.595883895331856,0.02934393113048051,-2.105930575897446,-0.04833736445494535,1.5203127185255432,0.7929985870183951,-0.008266085986454466,0.019791970732991753,-0.01015806826225053,0.02731392100550177,0.008709058359655556,0.008218570819259951,-0.0007917075322885892,-0.12629342079162598,-8.232172012329102,-0.7082624435424805,21.72299575805664,0.8015890121459961,2.1210567951202393,-0.10456027835607529
1692349064987100081,164,1692349064986393325,,panda_joint1,panda_joint2,panda_joint3,panda_joint4,panda_joint5,panda_joint6,panda_joint7,-0.26295056883064033,-0.5951191847314184,0.029084226107377365,-2.1049536563386897,-0.04804807469480624,1.5206398968678896,0.7930050578672453,-0.016399320582334308,0.019007303836062212,-0.004793014068654232,0.019901103184716808,0.0066175012398776364,0.00931021994387016,0.0004842195700733057,-0.08662056922912598,-8.196466445922852,-0.6725568771362305,21.68332290649414,0.7896871566772461,2.1146481037139893,-0.16315403580665588
1692349065022201442,165,1692349065020638752,,panda_joint1,panda_joint2,panda_joint3,panda_joint4,panda_joint5,panda_joint6,panda_joint7,-0.2633956531554765,-0.5942957497296659,0.028846265709656906,-2.1039555991657957,-0.047765505163082284,1.5209990800722428,0.7930041645452681,-0.015545898267703978,0.0212856683020508,-0.00974821942707003,0.02500551939588481,0.013346395774762774,0.011038304849312907,0.0007002263428638553,-0.12629342079162598,-8.196466445922852,-0.7836408615112305,21.64365005493164,0.8015890121459961,2.1283810138702393,-0.15674534440040588
1692349065055076874,166,1692349065054491677,,panda_joint1,panda_joint2,panda_joint3,panda_joint4,panda_joint5,panda_joint6,panda_joint7,-0.2638301563747156,-0.5934755208899467,0.02863321608661006,-2.102999495667135,-0.047479151321564675,1.521326703881724,0.7930032765336101,-0.012120991125804089,0.02762027817252826,-0.012848723569065494,0.02932272256067009,0.0015409811850541093,0.010741660379779585,0.0004762844626855908,-0.16199898719787598,-8.307550430297852,-0.6725568771362305,21.76266860961914,0.8134908676147461,2.1357052326202393,-0.15033665299415588
1692349065089068213,167,1692349065088544529,,panda_joint1,panda_joint2,panda_joint3,panda_joint4,panda_joint5,panda_joint6,panda_joint7,-0.2642702294033647,-0.5926486032987764,0.028430568185542206,-2.102041276539245,-0.04719038591618185,1.5216502847891187,0.7929989016743917,-0.012987486428242781,0.02616143732904258,-0.0054318169271233285,0.02773207567617867,0.005573975685440973,0.010092887856140086,0.0001797577165234897,-0.16199898719787598,-8.343255996704102,-0.7836408615112305,21.72299575805664,0.8015890121459961,2.1357052326202393,-0.11096896976232529
1692349065123149417,168,1692349065122543996,,panda_joint1,panda_joint2,panda_joint3,panda_joint4,panda_joint5,panda_joint6,panda_joint7,-0.26469341390176143,-0.5918237226582148,0.028227107571747127,-2.101091482026677,-0.04688909220681904,1.5219838034518605,0.7929989060915198,-0.01009403755292524,0.023563151887434408,-0.007581446425493295,0.029264667377070574,0.01093617559912128,0.011738685846795154,-0.0009435299526608988,-0.16199898719787598,-8.343255996704102,-0.7082624435424805,21.76266860961914,0.7951803207397461,2.1430294513702393,-0.11096896976232529
1692349065157419928,169,1692349065156553561,,panda_joint1,panda_joint2,panda_joint3,panda_joint4,panda_joint5,panda_joint6,panda_joint7,-0.2651287228674964,-0.5910084262499812,0.028004069901326093,-2.1001729897369175,-0.046601704223289526,1.5223242118726763,0.7930011396391736,-0.017111308465238895,0.02217944418191985,-0.007475328335102201,0.02808390175866207,0.004352796239781755,0.009640226583314763,-0.00018786159833348448,-0.16199898719787598,-8.454339981079102,-0.7439680099487305,21.68332290649414,0.8079977035522461,2.1430294513702393,-0.13111057877540588
1692349065191069291,170,1692349065190500799,,panda_joint1,panda_joint2,panda_joint3,panda_joint4,panda_joint5,panda_joint6,panda_joint7,-0.2655673477784764,-0.5901981483386417,0.02775130938860187,-2.099294727978075,-0.04629010509037666,1.5226613399598394,0.7929997154824651,-0.015613641244627182,0.019888283571115082,-0.005185009402793838,0.02192531555808093,0.007596888141259488,0.008609523900562467,-0.00016649247123984333,-0.08662056922912598,-8.418634414672852,-0.7439680099487305,21.72299575805664,0.8079977035522461,2.1283810138702393,-0.11829318851232529
1692349065224704094,171,1692349065224540622,,panda_joint1,panda_joint2,panda_joint3,panda_joint4,panda_joint5,panda_joint6,panda_joint7,-0.26599139980893843,-0.5893891931635801,0.02748560479710806,-2.0984387130043545,-0.04599415076251927,1.5230079805240908,0.7930018531797165,-0.014204481461116268,0.024489635989109873,-0.008930448416965227,0.026441790961995438,0.0059648913355047125,0.010269551025713029,0.0004643001541313891,-0.19770455360412598,-8.378961563110352,-0.7082624435424805,21.64365005493164,0.8079977035522461,2.1146481037139893,-0.13751927018165588
1692349065259220992,172,1692349065258522539,,panda_joint1,panda_joint2,panda_joint3,panda_joint4,panda_joint5,panda_joint6,panda_joint7,-0.26642551383363294,-0.5885833892423417,0.027224009600180173,-2.097626458706292,-0.04569706512312691,1.5233428424468016,0.7929981896580586,-0.011775416815430418,0.02650893272106353,-0.00309057762600897,0.024123690380875275,0.010598646424355599,0.01623522134033523,-0.0018851368327776538,-0.12629342079162598,-8.525751113891602,-0.7082624435424805,21.68332290649414,0.8134908676147461,2.1210567951202393,-0.10456027835607529
1692349065293605670,173,1692349065292492537,,panda_joint1,panda_joint2,panda_joint3,panda_joint4,panda_joint5,panda_joint6,panda_joint7,-0.26682762286244527,-0.5877926353743953,0.02696262281834152,-2.096819803173364,-0.04539444891579917,1.523675697752542,0.793002568871946,-0.010228604913415202,0.024589401226331086,-0.005188194589107729,0.023748382051999938,0.014246839788337979,0.009035055094158428,-9.125732497051001e-05,-0.12629342079162598,-8.601129531860352,-0.6328840255737305,21.68332290649414,0.8079977035522461,2.1430294513702393,-0.14392796158790588
1692349065327103349,174,1692349065326531184,,panda_joint1,panda_joint2,panda_joint3,panda_joint4,panda_joint5,panda_joint6,panda_joint7,-0.2672093470029709,-0.5870334525717467,0.02671705427047165,-2.096045777713428,-0.04510330960103596,1.5240048864620375,0.7930047574856287,-0.00545973798486078,0.019298217565913486,-0.006983462826419665,0.019634551711719458,0.006080783752348603,0.013125543524003974,0.0011261087739158522,-0.16199898719787598,-8.565423965454102,-0.6725568771362305,21.79837417602539,0.8198995590209961,2.1567623615264893,-0.16315403580665588
1692349065361255650,175,1692349065360577884,,panda_joint1,panda_joint2,panda_joint3,panda_joint4,panda_joint5,panda_joint6,panda_joint7,-0.26759514487693176,-0.5862727628062877,0.02648970902987812,-2.0952182879863264,-0.044830804150669624,1.5243168674908607,0.7930059055175829,-0.008775330860236102,0.021816674551452545,-0.009489670800097848,0.027122401774146165,0.010578389867618953,0.009339626125233794,0.0007630968407366159,-0.08662056922912598,-8.565423965454102,-0.6725568771362305,21.72299575805664,0.8253927230834961,2.1567623615264893,-0.16315403580665588
1692349065395048638,176,1692349065394528612,,panda_joint1,panda_joint2,panda_joint3,panda_joint4,panda_joint5,panda_joint6,panda_joint7,-0.26796387540684535,-0.5855246869210037,0.02626268116305707,-2.094347379116359,-0.044532687766447164,1.5246611185998704,0.7930043488177092,-0.012082207944279801,0.02401280209500743,-0.005545423666651707,0.029531889935410217,0.004022232724007654,0.0034841282646633455,4.2738794515803514e-05,-0.12629342079162598,-8.565423965454102,-0.7082624435424805,21.72299575805664,0.8134908676147461,2.1640865802764893,-0.15033665299415588
1692349065429231218,177,1692349065428480774,,panda_joint1,panda_joint2,panda_joint3,panda_joint4,panda_joint5,panda_joint6,panda_joint7,-0.2683272302319692,-0.5847905392532465,0.026041783617786363,-2.093452944776943,-0.04423948627819813,1.5249930107866279,0.7930069087975582,-0.011797005552173629,0.02049351970391723,-0.0051559247575552,0.025969354228293863,0.0008471192066900265,0.007026337389113313,0.0009565545154323266,-0.16199898719787598,-8.636835098266602,-0.6725568771362305,21.68332290649414,0.8079977035522461,2.1640865802764893,-0.14392796158790588
1692349065462800771,178,1692349065462503296,,panda_joint1,panda_joint2,panda_joint3,panda_joint4,panda_joint5,panda_joint6,panda_joint7,-0.2687042138566802,-0.5840911194958512,0.025826683049478917,-2.092574975883365,-0.04394719083404367,1.5253397891099132,0.7930075644048294,-0.004388214571882215,0.021549710557765268,-0.005236000464757965,0.027354422804639254,0.0056717283574139075,0.014671842374516736,0.0008682457518440473,-0.12629342079162598,-8.565423965454102,-0.7439680099487305,21.64365005493164,0.8079977035522461,2.1357052326202393,-0.15674534440040588
1692349065497144390,179,1692349065496607120,,panda_joint1,panda_joint2,panda_joint3,panda_joint4,panda_joint5,panda_joint6,panda_joint7,-0.26906366694031203,-0.5834159616094441,0.02559741368144802,-2.0917581292555187,-0.04366556218577669,1.5256781670787498,0.7929989414127656,-0.010299337848589956,0.017417771579283804,-0.009189335002899392,0.02384065071952031,0.0015481477011324589,0.016933287586876514,-0.00024311329122012607,-0.08662056922912598,-8.601129531860352,-0.7439680099487305,21.76266860961914,0.8198995590209961,2.1567623615264893,-0.11096896976232529
1692349065531097477,180,1692349065530504019,,panda_joint1,panda_joint2,panda_joint3,panda_joint4,panda_joint5,panda_joint6,panda_joint7,-0.2694288313286965,-0.5827081957528213,0.025354115528676547,-2.090889028648412,-0.04336088102698433,1.5260173999904305,0.7930017718238729,-0.01425938174476034,0.01681587219913902,-0.009891618668456375,0.025067237394183445,0.008327396430359867,0.0036875407973135993,-0.0016724796896383596,-0.08662056922912598,-8.565423965454102,-0.7082624435424805,21.76266860961914,0.8372945785522461,2.1704952716827393,-0.10456027835607529
1692349065564979860,181,1692349065564472773,,panda_joint1,panda_joint2,panda_joint3,panda_joint4,panda_joint5,panda_joint6,panda_joint7,-0.2697719520939569,-0.5819989381368084,0.02512806536340884,-2.090010746046672,-0.04305142612643607,1.5263767542045061,0.7930074758771206,-0.011127828376279838,0.020059546151074602,-0.009546601261205087,0.028884343969726906,0.011513019110899476,0.01658564445708543,0.0013961995515526689,-0.12629342079162598,-8.712213516235352,-0.6725568771362305,21.72299575805664,0.8134908676147461,2.1210567951202393,-0.17688694596290588
1692349065598894627,182,1692349065598476650,,panda_joint1,panda_joint2,panda_joint3,panda_joint4,panda_joint5,panda_joint6,panda_joint7,-0.2701183052617648,-0.5812901872408166,0.024898761320107706,-2.089125651230209,-0.042750503369309883,1.5267015986670613,0.793003289108864,-0.010278824244554955,0.024074105224767883,-0.005703757744351377,0.02684942242150304,0.0018581462445855159,0.007294333929040849,-0.0002911150040403828,-0.19770455360412598,-8.747919082641602,-0.6725568771362305,21.72299575805664,0.8134908676147461,2.1357052326202393,-0.15033665299415588
1692349065632803673,183,1692349065632491093,,panda_joint1,panda_joint2,panda_joint3,panda_joint4,panda_joint5,panda_joint6,panda_joint7,-0.27046790982162333,-0.5805945324766212,0.024679936529424622,-2.0882691365246377,-0.042454216510982926,1.527045911493278,0.7929997199665048,-0.011886999646457262,0.021129538365334505,-0.006396102478634176,0.02883300714097277,0.00910921592339007,0.012209799875459119,0.00047355764152313284,-0.12629342079162598,-8.672540664672852,-0.5971784591674805,21.68332290649414,0.8318014144897461,2.1430294513702393,-0.11829318851232529
1692349065666769944,184,1692349065666519710,,panda_joint1,panda_joint2,panda_joint3,panda_joint4,panda_joint5,panda_joint6,panda_joint7,-0.26916812209914737,-0.5791507064650114,0.024514268125318858,-2.086703300358237,-0.041723116170153444,1.5264301717557243,0.7929989017308691,0.04655526788348488,0.03594179254451498,-0.008925832480451912,0.05034805877080822,0.0178923095027026,-0.027592876376676175,0.0002721111309314033,0.09984183311462402,-8.196466445922852,-0.0020856857299804688,21.76266860961914,0.8739156723022461,2.0020382404327393,-0.11096896976232529
1692349065700990507,185,1692349065700556164,,panda_joint1,panda_joint2,panda_joint3,panda_joint4,panda_joint5,panda_joint6,panda_joint7,-0.2676037839379357,-0.5776238371037402,0.024479878985621865,-2.084931917379156,-0.04099198777237909,1.525407842448444,0.7930016211908407,0.058658402329079165,0.04799721895886686,-0.0014172761305282658,0.05742726982815972,0.02648226599496588,-0.031816962493478554,-0.00046738612488385697,-0.12629342079162598,-8.747919082641602,-0.7439680099487305,21.45322036743164,0.7896871566772461,1.9104856252670288,-0.12470187991857529
